!!!!SEGMENT: pl-kk--kk-i-324--001-002_casali-giovanni-battista--in-hac-festiva-die-iam-canorus.krn
!!!cenid: 17xx:2133
!!!COM: Casali, Giovanni Battista
!!!COM-rismID: pe30000607
!!!CDT: 1715-1792/07/06
!!!CNT: Italian
!!!OPR: In hac festiva die
!!!OTL: Iam canorus
!!!OMV: 002
!!!PDT:
!!!AGN: Sacred
!!!YEC: Copyright 2022 Narodowy Instytut Fryderyka Chopina (https://polishscores.org)
!!!YEM: License CC-BY-4.0 (https://creativecommons.org/licenses/by/4.0)
!!!SMS-siglum: PL-Kk
!!!SMS-shelfmark: Kk.I.324
!!!SMS-shelfwork: 001-002 M
!!!SMS-variant:
!!!SMS-altvar:
!!!NIFC-rismSourceID: 1001146199
!!!NIFC-rismChildID: 1001146199
!!!NIFC-islandoraID: pl-kk:5416
!!!URL-pdf-islandora: https://repozytorium.nifc.pl/islandora/object/pl-kk%3A5416/datastream/PDF/view
!!!URL-scan: https://polish.musicsources.pl/pl/lokalizacje/galeria/rekopisy/5943 @EN{Scan on Polish Music Sources Website} @PL{Skany w portalu Dziedzictwo Muzyki Polskiej w otwartym dostępie}
!!!IIIF:
!!!ONB-nifc: UWAGA: części: 1. In hac festiva die (Recitativo), 2. Iam canorus (Allegro), 3. Tristitie ergo mortales (Recitativo), 4. Caelesti sacrate (Andante), 5. Alleluia (Allegro)
!!!AIN: 2 empty 1 viola 2 violn
!!!key:
**kern	**dynam	**kern	**text	**kern	**dynam	**kern	**dynam	**kern	**dynam
*part5	*	*part4	*	*part3	*	*part2	*	*part1	*
*staff5	*	*staff4	*	*staff3	*	*staff2	*	*staff1	*
*Iempty	*	*Iempty	*	*Iviola	*	*Ivioln	*	*Ivioln	*
*I"[bc]	*	*I"[Baſso]	*	*I"Viola	*	*I"Violino Secondo	*	*I"Violino Primo	*
*I'[bc]	*	*I'[B]	*	*I'vla	*	*I'vl II	*	*I'vl I	*
*clefF4	*	*clefF4	*	*clefC3	*	*clefG2	*	*clefG2	*
*k[f#c#]	*	*k[f#c#]	*	*k[f#c#]	*	*k[f#c#]	*	*k[f#c#]	*
*D:	*	*D:	*	*D:	*	*D:	*	*D:	*
*M4/4	*	*M4/4	*	*M4/4	*	*M4/4	*	*M4/4	*
=1	=1	=1	=1	=1	=1	=1	=1	=1	=1
*	*	*	*	*all\right	*	*all\right	*	*2\right	*
!	!	!	!	!	!	!	!	!LO:TX:a:i:t=All&colon;o	!
8D/L	.	1r	.	8a\L	.	16f#/LL	.	2dd\	.
.	.	.	.	.	.	16f#/	.	.	.
8D/	.	.	.	8a\	.	16a/	.	.	.
.	.	.	.	.	.	16a/JJ	.	.	.
8D/	.	.	.	8a\	.	16f#/LL	.	.	.
.	.	.	.	.	.	16f#/	.	.	.
8D/J	.	.	.	8a\J	.	16a/	.	.	.
.	.	.	.	.	.	16a/JJ	.	.	.
8D/L	.	.	.	8a\L	.	16d/LL	.	4.ff#\	.
.	.	.	.	.	.	16d/	.	.	.
8D/	.	.	.	8a\	.	16a/	.	.	.
.	.	.	.	.	.	16a/JJ	.	.	.
8D/	.	.	.	8a\	.	16d/LL	.	.	.
.	.	.	.	.	.	16d/	.	.	.
8D/J	.	.	.	8a\J	.	16a/	.	8gg\	.
.	.	.	.	.	.	16a/JJ	.	.	.
=2	=2	=2	=2	=2	=2	=2	=2	=2	=2
*tremolo	*	*	*	*	*	*	*	*	*
8C#/L	.	1r	.	8a\L	.	16e/LL	.	4aa\	.
.	.	.	.	.	.	16e/	.	.	.
8C#/	.	.	.	8a\	.	16a/	.	.	.
.	.	.	.	.	.	16a/JJ	.	.	.
8C#/	.	.	.	8a\	.	16e/LL	.	4aa\	.
.	.	.	.	.	.	16e/	.	.	.
8C#/J	.	.	.	8a\J	.	16a/	.	.	.
.	.	.	.	.	.	16a/JJ	.	.	.
8C#/L	.	.	.	8a\L	.	16e/LL	.	4aa\	.
.	.	.	.	.	.	16e/	.	.	.
8C#/	.	.	.	8a\	.	16a/	.	.	.
.	.	.	.	.	.	16a/JJ	.	.	.
8C#/	.	.	.	8a\	.	16e/LL	.	8bb\L	.
.	.	.	.	.	.	16e/	.	.	.
8C#/J	.	.	.	8a\J	.	16a/	.	8ccc#\J	.
.	.	.	.	.	.	16a/JJ	.	.	.
=3	=3	=3	=3	=3	=3	=3	=3	=3	=3
8BB/L	.	1r	.	8b\L	.	16f#/LL	.	4ddd\	.
.	.	.	.	.	.	16f#/	.	.	.
8BB/	.	.	.	8b\	.	16b/	.	.	.
.	.	.	.	.	.	16b/JJ	.	.	.
8BB/	.	.	.	8b\	.	16f#/LL	.	4dd\	.
.	.	.	.	.	.	16f#/	.	.	.
8BB/J	.	.	.	8b\J	.	16b/	.	.	.
.	.	.	.	.	.	16b/JJ	.	.	.
*2\right	*	*	*	*	*	*	*	*	*
8F#\L	.	.	.	8a\L	.	16d/LL	.	4dd\	.
.	.	.	.	.	.	16d/	.	.	.
8F#\	.	.	.	8a\	.	16a/	.	.	.
.	.	.	.	.	.	16a/JJ	.	.	.
8F#\	.	.	.	8a\	.	16d/LL	.	4ddd\	.
.	.	.	.	.	.	16d/	.	.	.
8F#\J	.	.	.	8a\J	.	16a/	.	.	.
.	.	.	.	.	.	16a/JJ	.	.	.
=4	=4	=4	=4	=4	=4	=4	=4	=4	=4
8G\L	.	1r	.	8b\L	.	16d/LL	.	4bb\	.
.	.	.	.	.	.	16d/	.	.	.
8G\	.	.	.	8b\	.	16g/	.	.	.
.	.	.	.	.	.	16g/JJ	.	.	.
8G\	.	.	.	8b\	.	16d/LL	.	4gg\	.
.	.	.	.	.	.	16d/	.	.	.
8G\J	.	.	.	8b\J	.	16g/	.	.	.
.	.	.	.	.	.	16g/JJ	.	.	.
8A\L	.	.	.	8a\L	.	16c#/LL	.	4.ee\	.
.	.	.	.	.	.	16c#/	.	.	.
8A\	.	.	.	8a\	.	16e/	.	.	.
.	.	.	.	.	.	16e/JJ	.	.	.
8A\	.	.	.	8a\	.	16c#/LL	.	.	.
.	.	.	.	.	.	16c#/	.	.	.
8A\J	.	.	.	8a\J	.	16e/	.	8gg\	.
.	.	.	.	.	.	16e/JJ	.	.	.
=5	=5	=5	=5	=5	=5	=5	=5	=5	=5
!	!	!	!	!LO:TX:t=P:problem=defekt zrodla	!	!	!	!	!
8D\L	.	1r	.	8b\Lyy	.	16d/LL	.	4ff#\	.
.	.	.	.	.	.	16d/	.	.	.
8D\	.	.	.	8b\yy	.	16f#/	.	.	.
.	.	.	.	.	.	16f#/JJ	.	.	.
8D\	.	.	.	8b\yy	.	16d/LL	.	4dd\	.
.	.	.	.	.	.	16d/	.	.	.
8D\J	.	.	.	8b\Jyy	.	16f#/	.	.	.
!	!	!	!	!	!	!LO:LB:g=original	!	!	!
.	.	.	.	.	.	16f#/JJ	.	.	.
8F#\L	.	.	.	8a\L	.	16d/LL	.	4.aa\	.
.	.	.	.	.	.	16d/	.	.	.
8F#\	.	.	.	8a\	.	16a/	.	.	.
.	.	.	.	.	.	16a/JJ	.	.	.
8F#\	.	.	.	8a\	.	16d/LL	.	.	.
.	.	.	.	.	.	16d/	.	.	.
8F#\J	.	.	.	8a\J	.	16a/	.	8dd\	.
.	.	.	.	.	.	16a/JJ	.	.	.
=6	=6	=6	=6	=6	=6	=6	=6	=6	=6
8G\L	.	1r	.	8b\L	.	16d/LL	.	4bb\	.
.	.	.	.	.	.	16d/	.	.	.
8G\	.	.	.	8b\	.	16b/	.	.	.
.	.	.	.	.	.	16b/JJ	.	.	.
8G\	.	.	.	8b\	.	16d/LL	.	4gg\	.
.	.	.	.	.	.	16d/	.	.	.
8G\J	.	.	.	8b\J	.	16b/	.	.	.
.	.	.	.	.	.	16b/JJ	.	.	.
!	!	!	!	!LO:LB:g=original	!	!	!	!	!
8A\L	.	.	.	8a\L	.	16c#/LL	.	4.ee\	.
.	.	.	.	.	.	16c#/	.	.	.
8A\	.	.	.	8a\	.	16e/	.	.	.
.	.	.	.	.	.	16e/JJ	.	.	.
8A\	.	.	.	8a\	.	16c#/LL	.	.	.
.	.	.	.	.	.	16c#/	.	.	.
8A\J	.	.	.	8a\J	.	16e/	.	8gg\	.
.	.	.	.	.	.	16e/JJ	.	.	.
=7	=7	=7	=7	=7	=7	=7	=7	=7	=7
*	*	*	*	*tremolo	*	*	*	*	*
*	*	*	*	*2\right	*	*	*	*	*
!LO:LB:g=original	!	!	!	!	!	!	!	!LO:LB:g=original	!
8D/L	.	1r	.	8a\L	.	16d/LL	.	4ff#\	.
.	.	.	.	.	.	16d/	.	.	.
8D/	.	.	.	8a\	.	16f#/	.	.	.
.	.	.	.	.	.	16f#/JJ	.	.	.
8D/	.	.	.	8a\	.	16d/LL	.	8aa\L	.
.	.	.	.	.	.	16d/	.	.	.
8D/J	.	.	.	8a\J	.	16a/	.	8ff#\J	.
.	.	.	.	.	.	16a/JJ	.	.	.
8D/L	.	.	.	8a\L	.	16f#/LL	.	4dd\	.
.	.	.	.	.	.	16f#/	.	.	.
8D/	.	.	.	8a\	.	16a/	.	.	.
.	.	.	.	.	.	16a/JJ	.	.	.
8D/	.	.	.	8a\	.	16f#/LL	.	4aa\	.
.	.	.	.	.	.	16f#/	.	.	.
8D/J	.	.	.	8a\J	.	16a/	.	.	.
.	.	.	.	.	.	16a/JJ	.	.	.
=8	=8	=8	=8	=8	=8	=8	=8	=8	=8
8G\L	.	1r	.	8g\L	.	16g/LL	.	4b\	.
.	.	.	.	.	.	16g/	.	.	.
8G\	.	.	.	8g\	.	16b/	.	.	.
.	.	.	.	.	.	16b/JJ	.	.	.
8G\	.	.	.	8g\	.	16g/LL	.	4bb\	.
.	.	.	.	.	.	16g/	.	.	.
8G\J	.	.	.	8g\J	.	16b/	.	.	.
.	.	.	.	.	.	16b/JJ	.	.	.
8C#/L	.	.	.	8g\L	.	16e/LL	.	8r	.
.	.	.	.	.	.	16e/	.	.	.
8C#/	.	.	.	8g\	.	16cc#/	.	8ee\L	.
.	.	.	.	.	.	16cc#/JJ	.	.	.
8C#/	.	.	.	8g\	.	16e/LL	.	8gg\	.
.	.	.	.	.	.	16e/	.	.	.
8C#/J	.	.	.	8g\J	.	16g/	.	8bb\J	.
.	.	.	.	.	.	16g/JJ	.	.	.
=9	=9	=9	=9	=9	=9	=9	=9	=9	=9
8F#\L	.	1r	.	8f#\L	.	16f#/LL	.	4a/	.
.	.	.	.	.	.	16f#/	.	.	.
8F#\	.	.	.	8f#\	.	16a/	.	.	.
.	.	.	.	.	.	16a/JJ	.	.	.
8F#\	.	.	.	8f#\	.	16f#/LL	.	4aa\	.
.	.	.	.	.	.	16f#/	.	.	.
8F#\J	.	.	.	8f#\J	.	16a/	.	.	.
.	.	.	.	.	.	16a/JJ	.	.	.
8BB/L	.	.	.	8f#\L	.	16d/LL	.	8r	.
.	.	.	.	.	.	16d/	.	.	.
8BB/	.	.	.	8f#\	.	16b/	.	8dd\L	.
.	.	.	.	.	.	16b/JJ	.	.	.
8BB/	.	.	.	8f#\	.	16d/LL	.	8ff#\	.
.	.	.	.	.	.	16d/	.	.	.
8BB/J	.	.	.	8f#\J	.	16f#/	.	8aa\J	.
.	.	.	.	.	.	16f#/JJ	.	.	.
=10	=10	=10	=10	=10	=10	=10	=10	=10	=10
!	!	!LO:TX:t=[segno]:problem=znak segno na kresce taktowej	!	!	!	!LO:LB:g=original	!	!	!
8E\L	.	1r	.	8e\L	.	16e/LL	.	4g/	.
.	.	.	.	.	.	16e/	.	.	.
8E\	.	.	.	8e\	.	16g/	.	.	.
.	.	.	.	.	.	16g/JJ	.	.	.
8E\	.	.	.	8e\	.	16e/LL	.	4gg\	.
.	.	.	.	.	.	16e/	.	.	.
8E\J	.	.	.	8e\J	.	16g/	.	.	.
.	.	.	.	.	.	16g/JJ	.	.	.
8AA/L	.	.	.	8e\L	.	16c#/LL	.	8r	.
.	.	.	.	.	.	16c#/	.	.	.
8AA/	.	.	.	8e\	.	16e/	.	8cc#\L	.
.	.	.	.	.	.	16e/JJ	.	.	.
8AA/	.	.	.	8e\	.	16c#/LL	.	8ee\	.
.	.	.	.	.	.	16c#/	.	.	.
!LO:TX:t=[segno]:problem=znak segno na kresce taktowej	!	!	!	!LO:TX:t=[segno]:problem=znak segno na kresce taktowej	!	!	!	!LO:TX:t=[segno]:problem=znak segno na kresce taktowej	!
8AA/J	.	.	.	8e\J	.	16e/	.	8gg\J	.
!	!	!	!	!	!	!LO:TX:t=[segno]:problem=znak segno na kresce taktowej	!	!	!
.	.	.	.	.	.	16e/JJ	.	.	.
=11||	=11||	=11||	=11||	=11||	=11||	=11||	=11||	=11||	=11||
*	*	*	*	*^	*	*	*	*^	*
*	*	*	*	*	*Xtremolo	*	*	*	*	*	*
8D\L	.	1r	.	2ryy	8f#\L	.	8dd/ 8d/L	.	8ff#/L	2a/ 2d/	.
8D\	.	.	.	.	8f#\	.	8ff#/J	.	8aa/	.	.
8D\	.	.	.	.	8f#\	.	8dd/ 8d/L	.	8ff#/	.	.
8D\J	.	.	.	.	8f#\J	.	8ff#/J	.	8aa/J	.	.
!	!	!	!	!LO:TX:b:t=ten&colon;	!	!	!	!	!	!	!
8D\L	.	.	.	2b/	2g\	.	8b/ 8d/L	.	8gg/L	2b/ 2d/	.
8D\	.	.	.	.	.	.	8gg/J	.	8bb/	.	.
8D\	.	.	.	.	.	.	8b/ 8d/L	.	8gg/	.	.
8D\J	.	.	.	.	.	.	8gg/J	.	8bb/J	.	.
=12	=12	=12	=12	=12	=12	=12	=12	=12	=12	=12	=12
8D\L	.	1r	.	2a/	2f#\	.	8dd/ 8d/L	.	8ff#/L	2a/ 2d/	.
8D\	.	.	.	.	.	.	8ff#/J	.	8aa/	.	.
8D\	.	.	.	.	.	.	8dd/ 8d/L	.	8ff#/	.	.
8D\J	.	.	.	.	.	.	8ff#/J	.	8aa/J	.	.
8D\L	.	.	.	2b/	2g\	.	8b/ 8d/L	.	8gg/L	2b/ 2d/	.
8D\	.	.	.	.	.	.	8gg/J	.	8bb/	.	.
8D\	.	.	.	.	.	.	8b/ 8d/L	.	8gg/	.	.
8D\J	.	.	.	.	.	.	8gg/J	.	8bb/J	.	.
*	*	*	*	*	*	*	*	*	*v	*v	*
=13	=13	=13	=13	=13	=13	=13	=13	=13	=13	=13
!	!	!	!	!	!	!	!	!	!LO:LB:g=original	!
4D\	.	1r	.	4a/	4f#\	.	4ff#/ 4a/ 4d/	.	4aa/ 4a/ 4d/	.
*Xtremolo	*	*	*	*	*	*	*	*	*	*
16D\LL	.	.	.	4ryy	16f#\LL	.	16f#/LL	.	16f#/LL	.
16D\	.	.	.	.	16f#\	.	16f#/	.	16f#/	.
16D\	.	.	.	.	16f#\	.	16f#/	.	16f#/	.
!LO:LB:g=original	!	!	!	!	!	!	!	!	!	!
16D\JJ	.	.	.	.	16f#\JJ	.	16f#/JJ	.	16f#/JJ	.
!	!	!	!	!	!LO:LB:g=original	!	!	!	!	!
16G\LL	.	.	.	2ryy	16g\LL	.	16g/LL	.	16g/LL	.
16G\	.	.	.	.	16g\	.	16g/	.	16g/	.
16G\	.	.	.	.	16g\	.	16g/	.	16g/	.
16G\JJ	.	.	.	.	16g\JJ	.	16g/JJ	.	16g/JJ	.
*tremolo	*	*	*	*	*	*	*	*	*	*
16G#X\LL	.	.	.	.	16g#X\LL	.	16g#X/LL	.	16g#X/LL	.
16G#X\	.	.	.	.	16g#\	.	16g#/	.	16g#/	.
16G#X\	.	.	.	.	16g#\	.	16g#/	.	16g#/	.
16G#X\JJ	.	.	.	.	16g#\JJ	.	16g#/JJ	.	16g#/JJ	.
*	*	*	*	*v	*v	*	*	*	*	*
=14	=14	=14	=14	=14	=14	=14	=14	=14	=14
*	*	*	*	*tremolo	*	*	*	*	*
16A\LL	.	1r	.	16a\LL	.	16a/LL	.	16a/LL	.
16A\	.	.	.	16a\	.	16a/	.	16a/	.
16A\	.	.	.	16a\	.	16a/	.	16a/	.
16A\JJ	.	.	.	16a\JJ	.	16a/JJ	.	16a/JJ	.
16F#\LL	.	.	.	16f#\LL	.	16dd\LL	.	16dd\LL	.
16F#\	.	.	.	16f#\	.	16dd\	.	16dd\	.
16F#\	.	.	.	16f#\	.	16dd\	.	16dd\	.
16F#\JJ	.	.	.	16f#\JJ	.	16dd\JJ	.	16dd\JJ	.
16G\LL	.	.	.	16g\LL	.	16g/LL	.	16g/LL	.
16G\	.	.	.	16g\	.	16g/	.	16g/	.
16G\	.	.	.	16g\	.	16g/	.	16g/	.
16G\JJ	.	.	.	16g\JJ	.	16g/JJ	.	16g/JJ	.
16G#X\LL	.	.	.	16g#X\LL	.	16g#X/LL	.	16g#X/LL	.
16G#X\	.	.	.	16g#X\	.	16g#/	.	16g#/	.
16G#X\	.	.	.	16g#X\	.	16g#/	.	16g#/	.
16G#X\JJ	.	.	.	16g#X\JJ	.	16g#/JJ	.	16g#/JJ	.
=15	=15	=15	=15	=15	=15	=15	=15	=15	=15
*	*	*	*	*	*	*^	*	*^	*
4A\	.	1r	.	4a\	.	4a/	2.ryy	.	4a/	2.ryy	.
4d\	.	.	.	4dd\	.	4ff#/ 4a/ 4d/	.	.	4ff#/ 4a/ 4d/	.	.
4G\	.	.	.	4g\	.	4gg/ 4b/ 4d/	.	.	4gg/ 4b/ 4d/	.	.
4A\	.	.	.	4a\	.	4ee/ 4cc#/	4a\	.	4ee/ 4cc#/	4a\	.
*	*	*	*	*	*	*v	*v	*	*	*	*
=16	=16	=16	=16	=16	=16	=16	=16	=16	=16	=16
*Xtremolo	*	*	*	*Xtremolo	*	*	*	*	*	*
!	!	!	!	!	!	!LO:LB:g=original	!	!	!	!
8D/L	.	1r	.	8d\L	.	8dd/ 8d/	.	8ff#/ 8a/ 8d/	2ryy	.
8D/	.	.	.	8d\	.	16ff#\LL	.	16aa\LL	.	.
.	.	.	.	.	.	16ff#\JJ	.	16aa\JJ	.	.
8D/	.	.	.	8d\	.	8dd/ 8d/	.	8ff#/ 8a/ 8d/	.	.
8D/J	.	.	.	8d\J	.	16ff#\LL	.	16aa\LL	.	.
.	.	.	.	.	.	16ff#\JJ	.	16aa\JJ	.	.
8D/L	.	.	.	8d\L	.	8dd/L 8d/	.	8ff#/L	2a/ 2d/	.
8D/	.	.	.	8d\	.	8ff#/ 8a/ 8d/	.	8ff#/	.	.
8D/	.	.	.	8d\	.	8ff#/ 8a/ 8d/	.	8ff#/	.	.
8D/J	.	.	.	8d\J	.	8ff#/J 8a/ 8d/	.	8ff#/J	.	.
*	*	*	*	*	*	*	*	*v	*v	*
=17	=17	=17	=17	=17	=17	=17	=17	=17	=17
!	!	!	!	!	!	!LO:SIC:v:n=3:s=4ff#	!	!	!
4D/	.	1r	.	4d\	.	4ee/ 4a/ 4d/	.	4ff#/ 4a/ 4d/	.
4D/	.	.	.	4d\	.	4ff#/ 4a/ 4d/	.	4ff#/ 4a/ 4d/	.
4D/	.	.	.	4d\	.	4ff#/ 4a/ 4d/	.	4ff#/ 4a/ 4d/	.
4r	.	.	.	4r	.	4r	.	4r	.
=18	=18	=18	=18	=18	=18	=18	=18	=18	=18
*	*	*	*	*^	*	*	*	*	*
*	*	*2\right	*	*	*	*	*	*	*	*
!	!	!	!	!LO:TX:b:t=ten&colon;	!	!	!	!	!	!
!LO:LB:g=original	!	!	!	!	!	!	!	!	!LO:LB:g=original	!LO:DY:t=p.
8D\L	.	2D\	Iam	1d/	1f#\	p	16f#/LL	p	2dd\	p
.	.	.	.	.	.	.	16f#/	.	.	.
8D\	.	.	.	.	.	.	16a/	.	.	.
.	.	.	.	.	.	.	16a/JJ	.	.	.
8D\	.	.	.	.	.	.	16f#/LL	.	.	.
.	.	.	.	.	.	.	16f#/	.	.	.
8D\J	.	.	.	.	.	.	16a/	.	.	.
.	.	.	.	.	.	.	16a/JJ	.	.	.
*tremolo	*	*	*	*	*	*	*	*	*	*
8D\L	.	(4.F#\	ca-	.	.	.	16d/LL	.	4.ff#\	.
.	.	.	.	.	.	.	16d/	.	.	.
8D\	.	.	.	.	.	.	16f#/	.	.	.
.	.	.	.	.	.	.	16f#/JJ	.	.	.
8D\	.	.	.	.	.	.	16d/LL	.	.	.
.	.	.	.	.	.	.	16d/	.	.	.
8D\J	.	8G\)	.	.	.	.	16f#/	.	8gg\	.
.	.	.	.	.	.	.	16f#/JJ	.	.	.
=19	=19	=19	=19	=19	=19	=19	=19	=19	=19	=19
8C#/L	.	4A\	-no-	(2e/	(2A\	.	16e/LL	.	4aa\	.
.	.	.	.	.	.	.	16e/	.	.	.
8C#/	.	.	.	.	.	.	16a/	.	.	.
.	.	.	.	.	.	.	16a/JJ	.	.	.
8C#/	.	4A\	-rus	.	.	.	16e/LL	.	4aa\	.
.	.	.	.	.	.	.	16e/	.	.	.
8C#/J	.	.	.	.	.	.	16a/	.	.	.
.	.	.	.	.	.	.	16a/JJ	.	.	.
8C#/L	.	4A\	tu-	2e/)	2A\)	.	16e/LL	.	4aa\	.
.	.	.	.	.	.	.	16e/	.	.	.
8C#/	.	.	.	.	.	.	16a/	.	.	.
.	.	.	.	.	.	.	16a/JJ	.	.	.
8C#/	.	8B\L	-bae	.	.	.	16e/LL	.	8bb\L	.
.	.	.	.	.	.	.	16e/	.	.	.
8C#/J	.	8c#\J	.	.	.	.	16a/	.	8ccc#\J	.
.	.	.	.	.	.	.	16a/JJ	.	.	.
=20	=20	=20	=20	=20	=20	=20	=20	=20	=20	=20
!	!	!	!	!LO:LB:g=original	!	!	!	!	!	!
8BB/L	.	4d\	so-	1f#/	1d\	.	16f#/LL	.	4ddd\	.
.	.	.	.	.	.	.	16f#/	.	.	.
8BB/	.	.	.	.	.	.	16b/	.	.	.
.	.	.	.	.	.	.	16b/JJ	.	.	.
8BB/	.	4D/	-nus	.	.	.	16f#/LL	.	4dd\	.
.	.	.	.	.	.	.	16f#/	.	.	.
8BB/J	.	.	.	.	.	.	16b/	.	.	.
.	.	.	.	.	.	.	16b/JJ	.	.	.
8F#\L	.	4D/	so-	.	.	.	16d/LL	.	4dd\	.
.	.	.	.	.	.	.	16d/	.	.	.
8F#\	.	.	.	.	.	.	16a/	.	.	.
.	.	.	.	.	.	.	16a/JJ	.	.	.
8F#\	.	4d\	-nat	.	.	.	16d/LL	.	4ddd\	.
.	.	.	.	.	.	.	16d/	.	.	.
8F#\J	.	.	.	.	.	.	16a/	.	.	.
.	.	.	.	.	.	.	16a/JJ	.	.	.
*	*	*	*	*v	*v	*	*	*	*	*
=21	=21	=21	=21	=21	=21	=21	=21	=21	=21
!	!	!	!	!	!	!LO:LB:g=original	!	!	!
8G\L	.	4B\	un-	8g\L	.	16d/LL	.	4bb\	.
.	.	.	.	.	.	16d/	.	.	.
8G\	.	.	.	8g\	.	16b/	.	.	.
.	.	.	.	.	.	16b/JJ	.	.	.
8G\	.	4G\	-di-	8g\	.	16d/LL	.	4gg\	.
.	.	.	.	.	.	16d/	.	.	.
8G\J	.	.	.	8g\J	.	16b/	.	.	.
.	.	.	.	.	.	16b/JJ	.	.	.
8AA/L	.	4.E\	-que	8a\L	.	16c#/LL	.	4.ee\	.
.	.	.	.	.	.	16c#/	.	.	.
8AA/	.	.	.	8a\	.	16e/	.	.	.
.	.	.	.	.	.	16e/JJ	.	.	.
8AA/	.	.	.	8a\	.	16c#/LL	.	.	.
.	.	.	.	.	.	16c#/	.	.	.
8AA/J	.	8G\	fra-	8a\J	.	16e/	.	8gg\	.
.	.	.	.	.	.	16e/JJ	.	.	.
=22	=22	=22	=22	=22	=22	=22	=22	=22	=22
*	*below	*	*	*	*	*	*	*	*
!LO:LB:g=original	!	!	!	!	!	!	!	!	!
8D\L	.	4F#\	-go-	8a\L	.	16d/LL	.	4ff#\	.
.	.	.	.	.	.	16d/	.	.	.
8D\	.	.	.	8f#\J	.	16f#/	.	.	.
.	.	.	.	.	.	16f#/JJ	.	.	.
8D\	.	4D\	-re	8a\L	.	16d/LL	.	4dd\	.
.	.	.	.	.	.	16d/	.	.	.
8D\J	.	.	.	8f#\J	.	16f#/	.	.	.
.	.	.	.	.	.	16f#/JJ	.	.	.
!	!LO:DY:t=po	!	!	!	!LO:DY:t=po	!	!	!	!LO:DY:t=p.
8F#\L	p	4.A\	so-	8a\L	p	16d/LL	.	4.aa\	p
!	!LO:DY:t=f.	!	!	!	!	!	!	!	!LO:DY:t=f.
.	f	.	.	.	.	16d/	.	.	f
!	!	!	!	!	!	!	!LO:DY:t=po	!	!
8F#\	.	.	.	8a\	f	16a/	p	.	.
!	!	!	!	!	!	!	!LO:DY:t=f:	!	!
.	.	.	.	.	.	16a/JJ	f	.	.
8F#\	.	.	.	8a\	.	16d/LL	.	.	.
.	.	.	.	.	.	16d/	.	.	.
8F#\J	.	8D\	-nat	8a\J	.	16a/	.	8dd\	.
.	.	.	.	.	.	16a/JJ	.	.	.
=23	=23	=23	=23	=23	=23	=23	=23	=23	=23
*	*	*	*	*tremolo	*	*	*	*	*
8G\L	.	4BB/	un-	8g\L	.	16d/LL	.	4bb\	.
.	.	.	.	.	.	16d/	.	.	.
8G\	.	.	.	8g\	.	16g/	.	.	.
.	.	.	.	.	.	16g/JJ	.	.	.
8G\	.	4B\	-di-	8g\	.	16d/LL	.	8bb\L	.
.	.	.	.	.	.	16d/	.	.	.
8G\J	.	.	.	8g\J	.	16g/	.	8gg\J	.
.	.	.	.	.	.	16g/JJ	.	.	.
!	!LO:DY:t=rinfz&colon;	!	!	!	!	!	!	!	!LO:DY:t=rinfz.
8AA/L	rfz	4.AA/	-que	8a\L	rfz	16c#/LL	rfz	4.ee\	rfz
.	.	.	.	.	.	16c#/	.	.	.
8AA/	.	.	.	8a\	.	16e/	.	.	.
.	.	.	.	.	.	16e/JJ	.	.	.
8AA/	.	.	.	8a\	.	16c#/LL	.	.	.
.	.	.	.	.	.	16c#/	.	.	.
8AA/J	.	8G\	fra-	8a\J	.	16e/	.	8gg\	.
.	.	.	.	.	.	16e/JJ	.	.	.
=24	=24	=24	=24	=24	=24	=24	=24	=24	=24
*	*	*	*	*	*	*	*	*^	*
!	!	!	!	!	!	!LO:TX:t=P:mixedbeam:problem	!	!	!	!
!	!	!	!	!LO:TX:t=P:f(orte)=f.:global:problem	!	!	!	!	!	!
!	!LO:DY:t=f.	!	!	!	!	!	!	!	!	!LO:DY:t=f.
8D\L	f	4F#\	-go-	8d\L	f	8d/L	f	8ff#/ 8a/ 8d/	2ryy	f
8D\	.	.	.	8d\	.	16ff#\L	.	16aa\LL	.	.
.	.	.	.	.	.	16ff#\JJ	.	16aa\JJ	.	.
8D\	.	4D\	-re	8d\	.	8dd/L 8d/	.	8ff#/ 8a/ 8d/	.	.
8D\J	.	.	.	8d\J	.	16ff#/L	.	16aa\LL	.	.
.	.	.	.	.	.	16ff#/JJ	.	16aa\JJ	.	.
8D\L	.	2r	.	8d\L	.	8dd/L 8d/	.	8ff#/L	2a/ 2d/	.
8D\	.	.	.	8d\	.	8ff#/ 8a/ 8d/	.	8ff#/	.	.
8D\	.	.	.	8d\	.	8ff#/ 8a/ 8d/	.	8ff#/	.	.
8D\J	.	.	.	8d\J	.	8ff#/J 8a/ 8d/	.	8ff#/J	.	.
=25	=25	=25	=25	=25	=25	=25	=25	=25	=25	=25
!	!	!	!	!	!	!	!	!LO:LB:g=original	!	!
4D\	.	2r	.	4d\	.	4ff#/ 4a/ 4d/	.	4ff#/	2.a/ 2.d/	.
4D\	.	.	.	4d\	.	4ff#/ 4a/ 4d/	.	4ff#/	.	.
4D\	.	4.D\	stre-	4d\	.	4ff#/ 4a/ 4d/	.	4ff#/	.	.
4r	.	.	.	4r	.	4r	.	4r	4r	.
.	.	8D\	-punt	.	.	.	.	.	.	.
=26	=26	=26	=26	=26	=26	=26	=26	=26	=26	=26
4D\	.	4A\	arm-	4f#\	.	4ff#/ 4a/ 4d/	.	4ff#/	2.a/ 2.d/	.
4D\	.	4F#\	-ma	4f#\	.	4ff#/ 4a/ 4d/	.	4ff#/	.	.
!LO:PB:g=original	!	!LO:LB:g=original	!	!	!	!	!	!	!	!
4D\	.	4.A\	stre-	4f#\	.	4ff#/ 4a/ 4d/	.	4ff#/	.	.
4r	.	.	.	4r	.	4r	.	4r	4r	.
.	.	8A\	-punt	.	.	.	.	.	.	.
=27	=27	=27	=27	=27	=27	=27	=27	=27	=27	=27
4D\	.	4d\	ar-	4f#\	.	4ff#/ 4a/ 4d/	.	4ff#/	2.a/ 2.d/	.
4D\	.	4D\	-ma	4f#\	.	4ff#/ 4a/ 4d/	.	4ff#/	.	.
!	!	!	!	!LO:LB:g=original	!	!LO:LB:g=original	!	!	!	!
4D\	.	4d\	iam	4d\	.	4ff#/ 4a/ 4d/	.	4ff#/	.	.
4r	.	4B\	hor-	4r	.	4r	.	4r	4r	.
*	*	*	*	*	*	*	*	*v	*v	*
=28	=28	=28	=28	=28	=28	=28	=28	=28	=28
!	!LO:DY:t=p.	!	!	!	!	!	!	!	!LO:DY:t=p.
(4D/	p	4G#X\	-ro-	4e\	p	(4b/	p	(4gg#X\	p
4C#/)	.	4A\	-re	4e\	.	4a/)	.	4aa\)	.
*Xtremolo	*	*	*	*Xtremolo	*	*	*	*	*
8C#/L	.	4A\	tur-	8e\L	.	8a/L	.	8ee\L	.
8C#/	.	.	.	8e\	.	8a/	.	8ee\	.
8C#/	.	8A\	-ba	8e\	.	8a/	.	8ee\	.
8C#/J	.	8E\	in-	8e\J	.	8a/J	.	8ee\J	.
=29	=29	=29	=29	=29	=29	=29	=29	=29	=29
*	*	*	*	*tremolo	*	*	*	*	*
8D/L	.	4F#\	-fi-	8a\L	.	4dd\	.	4ff#\	.
8D/	.	.	.	8a\	.	.	.	.	.
8D/	.	8d\	-da	8a\	.	8dd\L	.	8ff#\L	.
8D/J	.	8c#\	im-	8a\J	.	8cc#\J	.	8ee\J	.
8D/L	.	4B\	-mo-	8f#\L	.	4b\	.	4dd\	.
8D/	.	.	.	8f#\	.	.	.	.	.
8D#X/	.	4A\	-tae	8f#\	.	4a\	.	4cc#\	.
8D#/J	.	.	.	8f#\J	.	.	.	.	.
=30	=30	=30	=30	=30	=30	=30	=30	=30	=30
8E\L	.	4E\	stat	4B/	.	4g#X/	f	4b/	.
8E\	.	.	.	.	.	.	.	.	.
!	!LO:DY:t=for	!	!	!	!	!	!	!LO:DY:t=f.	!
8E\	f	4r	.	8B/L	f	8e/L	.	8g#X/L	f
8E\J	.	.	.	8G#X/J	.	8g#X/J	.	8b/J	.
*	*	*	*	*Xtremolo	*	*	*	*	*
!LO:LB:g=original	!LO:DY:t=p.	!LO:LB:g=original	!	!	!	!	!	!	!LO:DY:t=p.
8C#/L	p	4A\	stre-	8A/L	.	8e/L	.	8a/L	p
8C#/	.	.	.	8A/	p	8e/	.	8a/	.
8C#/	.	4E\	-punt	8A/	.	8e/	p	8a/	.
8C#/J	.	.	.	8A/J	.	8e/J	.	8a/J	.
=31	=31	=31	=31	=31	=31	=31	=31	=31	=31
*tremolo	*	*	*	*tremolo	*	*	*	*	*
8D\L	.	8F#\L	ar-	8A/L	.	8f#/L	.	8a/L	.
8D\	.	16E\L	.	8A/	.	8f#/	.	8a/	.
.	.	16D\JJ	.	.	.	.	.	.	.
8D\	.	8F#\L	.	8A/	.	8f#/	.	8a/	.
!	!	!	!	!	!LO:DY:t=po	!	!	!	!
8D\J	.	8A\J	.	8A/J	p	8f#/J	.	8a/J	.
!	!LO:DY:t=po.	!	!	!	!	!	!LO:DY:t=po	!	!LO:DY:t=p.
8D\L	p	4d\	.	8B/L	f	2f#/	p	2dd\	p
!	!LO:DY:t=f.	!	!	!	!	!	!	!	!LO:DY:t=f.
8D\	f	.	.	8B/	.	.	.	.	f
8D\	.	4F#\	.	8B/	.	.	f	.	.
8D\J	.	.	.	8B/J	.	.	.	.	.
=32	=32	=32	=32	=32	=32	=32	=32	=32	=32
!	!LO:DY:t=p.	!	!	!	!	!	!	!LO:LB:g=original	!LO:DY:t=p.
8E\L	p	8G#X\L	.	8B/L	p	8g#X/L	p	8b/L	p
8E\	.	16F#\L	.	8B/	.	8g#/	.	8b/	.
.	.	16E\JJ	.	.	.	.	.	.	.
8E\	.	8G#\L	.	8B/	.	8g#/	.	8b/	.
8E\J	.	8B\J	.	8B/J	.	8g#/J	.	8b/J	.
!	!LO:DY:t=po.	!	!	!	!LO:DY:t=po	!	!LO:DY:t=po	!	!LO:DY:t=po.
8E\L	p	4e\	.	8c#\L	p	2g#/	p	2ee\	p
!	!LO:DY:t=f.	!	!	!	!	!	!	!	!LO:DY:t=f.
8E\	f	.	.	8c#\	f	.	f	.	f
8E\	.	4G#X\	.	8c#\	.	.	.	.	.
8E\J	.	.	.	8c#\J	.	.	.	.	.
=33	=33	=33	=33	=33	=33	=33	=33	=33	=33
*Xtremolo	*	*	*	*	*	*	*	*	*
!	!	!	!	!	!	!	!	!	!LO:DY:t=p.
8F#\L	.	8A\L	.	8c#\	p	8a/	p	8cc#\	p
8F#\J	.	16B\L	.	8r	.	8r	.	8r	.
.	.	16c#\JJ	.	.	.	.	.	.	.
8G#X\L	.	8B\L	.	8e\	.	8e/	.	8b\	.
8G#\J	.	8d\J	.	8r	.	8r	.	8r	.
8A\L	.	4c#\	.	4e\	.	(4a/	.	(4cc#\	.
8A\J	.	.	.	.	.	.	.	.	.
8G#X\L	.	4B\	.	4e\	.	4e/)	.	4b\)	.
8G#\J	.	.	.	.	.	.	.	.	.
=34	=34	=34	=34	=34	=34	=34	=34	=34	=34
*	*	*	*	*Xtremolo	*	*	*	*	*
!LO:LB:g=original	!	!LO:LB:g=original	!	!LO:LB:g=original	!	!LO:LB:g=original	!	!	!
8F#\L	.	4A\	.	8f#\L	.	8a'\L	.	8a'/L	.
8F#\J	.	.	.	8f#\J	.	8cc#'\J	.	8cc#'/J	.
8E\L	.	4G#X\	.	8e\L	.	8g#X'\L	.	8g#X'/L	.
8E\J	.	.	.	8e\J	.	8cc#'\J	.	8cc#'/J	.
8D\L	.	4F#\	.	8d\L	.	8f#'/L	.	8f#'/L	.
8D\J	.	.	.	8d\J	.	8a'/J	.	8a'/J	.
8C#/L	.	4E\	.	8c#\L	.	8e'/L	.	8e'/L	.
8C#/J	.	.	.	8c#\J	.	8a'/J	.	8a'/J	.
=35	=35	=35	=35	=35	=35	=35	=35	=35	=35
4d\	.	4d\	.	4d/	.	8ff#'\L	.	8ff#'\L	.
.	.	.	.	.	.	8aa'\J	.	8aa'\J	.
4c#\	.	4c#\	.	4c#/	.	8ee'\L	.	8ee'\L	.
.	.	.	.	.	.	8aa'\J	.	8aa'\J	.
4B\	.	4B\	.	4B/	.	8dd'\L	.	8dd'\L	.
.	.	.	.	.	.	8aa'\J	.	8aa'\J	.
4A\	.	4A\	.	4A/	.	8cc#'\L	.	8cc#'\L	.
.	.	.	.	.	.	8aa'\J	.	8aa'\J	.
=36	=36	=36	=36	=36	=36	=36	=36	=36	=36
*	*	*	*	*	*	*^	*	*^	*
8E\L	.	4e\	.	8e\L	.	4ee/ 4b/	4g#X\	.	4ee/ 4b/	4g#X\	.
8E\	.	.	.	8e\	.	.	.	.	.	.	.
8E\	.	4E\	-ma	8e\	.	4ee/ 4b/	4g#\	.	4ee/ 4b/	4g#\	.
8E\J	.	.	.	8e\J	.	.	.	.	.	.	.
*	*	*	*	*tremolo	*	*	*	*	*	*	*
8E\L	.	4.E\	iam	8e\L	.	16g#X/LL	2ryy	.	16b/LL	2ryy	.
.	.	.	.	.	.	16g#/	.	.	16b/	.	.
8E\	.	.	.	8e\	.	16g#/	.	.	16b/	.	.
.	.	.	.	.	.	16g#/JJ	.	.	16b/JJ	.	.
8E\	.	.	.	8e\	.	16g#/LL	.	.	16b/LL	.	.
.	.	.	.	.	.	16g#/	.	.	16b/	.	.
8E\J	.	8E\	hor-	8e\J	.	16g#/	.	.	16b/	.	.
.	.	.	.	.	.	16g#/JJ	.	.	16b/JJ	.	.
*	*	*	*	*	*	*v	*v	*	*	*	*
*	*	*	*	*	*	*	*	*v	*v	*
=37	=37	=37	=37	=37	=37	=37	=37	=37	=37
*	*	*	*	*	*	*tremolo	*	*	*
*tremolo	*	*	*	*	*	*	*	*tremolo	*
8E\L	.	4F#\	-ro-	8e\L	.	16f#/LL	.	16a/LL	.
.	.	.	.	.	.	16f#/	.	16a/	.
8E\	.	.	.	8e\	.	16f#/	.	16a/	.
.	.	.	.	.	.	16f#/	.	16a/	.
8E\	.	4F#\	-re	8e\	.	16f#/	.	16a/	.
.	.	.	.	.	.	16f#/	.	16a/	.
8E\J	.	.	.	8e\J	.	16f#/	.	16a/	.
.	.	.	.	.	.	16f#/JJ	.	16a/JJ	.
!	!LO:DY:t=rinfz.	!	!	!	!	!	!	!	!LO:DY:t=rinfz.
8D\L	rfz	4G#X\	tur-	8e\L	rfz	16g#X/LL	rfz	16b/LL	rfz
.	.	.	.	.	.	16g#X/	.	16b/	.
8D\	.	.	.	8e\	.	16g#X/	.	16b/	.
.	.	.	.	.	.	16g#X/	.	16b/	.
8D\	.	8G#\	-ba	8e\	.	16g#X/	.	16b/	.
.	.	.	.	.	.	16g#X/	.	16b/	.
8D\J	.	8G#\	in-	8e\J	.	16g#X/	.	16b/	.
.	.	.	.	.	.	16g#X/JJ	.	16b/JJ	.
=38	=38	=38	=38	=38	=38	=38	=38	=38	=38
!LO:LB:g=original	!	!LO:LB:g=original	!	!	!	!	!	!LO:LB:g=original	!
8C#/L	.	4A\	-fi-	8e\L	.	16a/LL	.	16e/LL	.
.	.	.	.	.	.	16a/	.	16e/	.
8C#/	.	.	.	8e\	.	16a/	.	16e/	.
.	.	.	.	.	.	16a/	.	16e/	.
8C#/	.	8A\	-da	8e\	.	16a/	f	16e/	.
.	.	.	.	.	.	16a/	.	16e/	.
8C#/J	.	8c#\	im-	8e\J	.	16a/	.	16e/	.
.	.	.	.	.	.	16a/JJ	.	16e/JJ	.
!	!LO:DY:t=f.	!	!	!	!	!	!	!	!LO:DY:t=f.
8GG#X/L	f	4B\	-mo-	8e\L	f	16e/LL	.	16b/LL	f
.	.	.	.	.	.	16e/	.	16b/	.
8GG#X/	.	.	.	8e\	.	16e/	.	16b/	.
.	.	.	.	.	.	16e/	.	16b/	.
8GG#X/	.	4d\	-tae	8e\	.	16e/	.	16b/	.
.	.	.	.	.	.	16e/	.	16b/	.
8GG#X/J	.	.	.	8e\J	.	16e/	.	16b/	.
.	.	.	.	.	.	16e/JJ	.	16b/JJ	.
*	*	*	*	*	*	*	*	*Xtremolo	*
=39	=39	=39	=39	=39	=39	=39	=39	=39	=39
8AA/L	.	4c#\	stat	8e\L	.	16cc#\LL	.	16cc#\LL	.
.	.	.	.	.	.	16a\	.	16a\	.
8AA/	.	.	.	8e\	.	16b\	.	16b\	.
.	.	.	.	.	.	16cc#\JJ	.	16cc#\JJ	.
8AA/	.	4r	.	8e\	.	16dd\LL	.	16dd\LL	.
.	.	.	.	.	.	16ee\	.	16ee\	.
8AA/J	.	.	.	8e\J	.	16ff#\	.	16ff#\	.
.	.	.	.	.	.	16gg#X\JJ	.	16gg#X\JJ	.
8C#/L	.	4A\	tur-	8e\L	.	4aa\	.	4aa\	.
8C#/	.	.	.	8e\	.	.	.	.	.
8C#/	.	8A\	-ba	8e\	.	4r	.	4r	.
8C#/J	.	8c#\	in-	8e\J	.	.	.	.	.
=40	=40	=40	=40	=40	=40	=40	=40	=40	=40
!	!LO:DY:t=p.	!	!	!	!	!LO:LB:g=original	!	!	!LO:DY:t=p.
8C#/L	p	4A\	-fi-	4e\	p	4aa/ 4cc#/ 4e/	p	4aa/ 4cc#/ 4e/	p
8C#/	.	.	.	.	.	.	.	.	.
*	*	*	*	*Xtremolo	*	*Xtremolo	*	*	*
8C#/	.	8C#/	-da	8c#\L	.	16c#/LL	.	16c#/LL	.
.	.	.	.	.	.	16c#/	.	16c#/	.
8C#/J	.	8C#/	im-	8c#\J	.	16c#/	.	16c#/	.
.	.	.	.	.	.	16c#/JJ	.	16c#/JJ	.
*Xtremolo	*	*	*	*	*	*tremolo	*	*tremolo	*
8D/L	.	4D/	-mo-	8d\L	.	16d/LL	.	16d/LL	.
.	.	.	.	.	.	16d/	.	16d/	.
8D/	.	.	.	8d\	.	16d/	.	16d/	.
.	.	.	.	.	.	16d/JJ	.	16d/JJ	.
8D#X/	.	4D#X/	-tae	8d#X\	.	16d#X/LL	.	16d#X/LL	.
.	.	.	.	.	.	16d#X/	.	16d#X/	.
8D#/J	.	.	.	8d#\J	.	16d#X/	.	16d#X/	.
.	.	.	.	.	.	16d#X/JJ	.	16d#X/JJ	.
=41	=41	=41	=41	=41	=41	=41	=41	=41	=41
!	!	!	!	!LO:LB:g=original	!	!	!	!	!
8E\L	.	4E\	stat	8e\L	.	16e/LL	.	16e/LL	.
.	.	.	.	.	.	16e/	.	16e/	.
!	!	!	!	!	!	!	!LO:DY:t=po	!	!
8E\J	.	.	.	8e\J	.	16e/	p	16e/	.
.	.	.	.	.	.	16e/JJ	.	16e/JJ	.
!	!	!	!	!	!LO:DY:t=po	!	!	!LO:DY:t=po	!LO:DY:t=po
8C#/L	.	4A\	im-	8c#\L	p	16a/LL	f	16a/LL	p
!	!	!	!	!	!	!	!	!	!LO:DY:t=f.
.	.	.	.	.	f	16a/	.	16a/	f
8C#/J	.	.	.	8c#\J	.	16a/	.	16a/	.
.	.	.	.	.	.	16a/JJ	.	16a/JJ	.
!LO:LB:g=original	!	!	!	!	!	!	!	!	!
8D\L	.	4D/	-mo-	8d\L	.	16d/LL	.	16d/LL	.
.	.	.	.	.	.	16d/	.	16d/	.
8D\J	.	.	.	8d\J	.	16d/	.	16d/	.
.	.	.	.	.	.	16d/JJ	.	16d/JJ	.
8D#X\L	.	4D#X/	-ta	8d#X\L	.	16d#X/LL	.	16d#X/LL	.
.	.	.	.	.	.	16d#X/	.	16d#X/	.
8D#\J	.	.	.	8d#\J	.	16d#X/	.	16d#X/	.
.	.	.	.	.	.	16d#X/JJ	.	16d#X/JJ	.
*	*	*	*	*	*	*	*	*Xtremolo	*
=42	=42	=42	=42	=42	=42	=42	=42	=42	=42
8E\L	.	4E\	stat	8e\L	.	4e/	.	4e/	.
8E\J	.	.	.	8e\J	f	.	.	.	.
!	!	!	!	!	!	!	!	!	!LO:DY:t=f.
8C#/L	.	4A\	im-	8c#\L	.	4aa/ 4cc#/ 4e/	f	4aa/ 4cc#/ 4e/	f
8C#/J	.	.	.	8c#\J	.	.	.	.	.
8D\L	.	4Dn\	-mo-	8d\L	.	4aa/ 4a/ 4d/	.	4aa/ 4a/ 4d/	.
8D\J	.	.	.	8d\J	.	.	.	.	.
8E\L	.	4E\	-tae	8e\L	.	4gg#X/ 4b/ 4e/	.	4gg#X/ 4b/ 4e/	.
8E\J	.	.	.	8e\J	.	.	.	.	.
=43	=43	=43	=43	=43	=43	=43	=43	=43	=43
*	*	*	*	*tremolo	*	*	*	*	*
8AA/L	.	4AA/	stat	8c#\L	.	4aa/ 4cc#/ 4e/	.	4aa/ 4cc#/ 4e/	.
8AA/	.	.	.	8c#\	.	.	.	.	.
8AA/	.	4r	.	8c#\	.	4aa/ 4cc#/ 4e/	.	4aa/ 4cc#/ 4e/	.
8AA/J	.	.	.	8c#\J	.	.	.	.	.
*	*	*	*	*	*	*Xtremolo	*	*	*
8C#/L	.	2r	.	8e\L	.	16aa\LL	.	16aa\LL	.
.	.	.	.	.	.	16gg#X\	.	16gg#X\	.
8C#/	.	.	.	8e\	.	16aa\	.	16aa\	.
.	.	.	.	.	.	16gg#\JJ	.	16gg#\JJ	.
8C#/	.	.	.	8e\	.	16aa\LL	.	16aa\LL	.
.	.	.	.	.	.	16gg#\	.	16gg#\	.
8C#/J	.	.	.	8e\J	.	16ff#\	.	16ff#\	.
.	.	.	.	.	.	16ee\JJ	.	16ee\JJ	.
=44	=44	=44	=44	=44	=44	=44	=44	=44	=44
*tremolo	*	*	*	*Xtremolo	*	*	*	*	*
!	!	!	!	!	!	!	!	!LO:LB:g=original	!
8D\L	.	1r	.	8A/L	.	16ff#\LL	.	16ff#\LL	.
.	.	.	.	.	.	16ee#X\	.	16ee#X\	.
8D\	.	.	.	8A/J	.	16ff#\	.	16ff#\	.
.	.	.	.	.	.	16ee#\JJ	.	16ee#\JJ	.
8D\	.	.	.	8d\L	.	16ff#\LL	.	16ff#\LL	.
.	.	.	.	.	.	16dd\	.	16dd\	.
8D\J	.	.	.	8d\J	.	16cc#\	.	16cc#\	.
.	.	.	.	.	.	16b\JJ	.	16b\JJ	.
8E\L	.	.	.	8e\L	.	4a/	.	4cc#\	.
8E\	.	.	.	8e\	.	.	.	.	.
8E\	.	.	.	8e\	.	4g#X/	.	4b\	.
8E\J	.	.	.	8e\J	.	.	.	.	.
=45	=45	=45	=45	=45	=45	=45	=45	=45	=45
*	*	*	*	*tremolo	*	*	*	*	*
8AA/L	.	2r	.	8c#\L	.	8a/L	.	8a/L	.
8AA/	.	.	.	8c#\	.	8A/J	.	8A/J	.
8AA/	.	.	.	8c#\	.	4A/	.	4A/|	.
8AA/J	.	.	.	8c#\J	.	.	.	.	.
!	!LO:DY:t=p.	!	!	!	!	!	!	!	!LO:DY:t=p.
8A\L	p	4.A\	Iam	8e\L	p	16c#/LL	p	16a/LL	p
.	.	.	.	.	.	16c#/	.	16a/	.
8A\	.	.	.	8e\	.	16a/	.	16cc#/	.
.	.	.	.	.	.	16a/JJ	.	16cc#/JJ	.
8A\	.	.	.	8e\	.	16c#/LL	.	16a/LL	.
.	.	.	.	.	.	16c#/	.	16a/	.
8A\J	.	8A\	ca-	8e\J	.	16a/	.	16cc#/	.
.	.	.	.	.	.	16a/JJ	.	16cc#/JJ	.
=46	=46	=46	=46	=46	=46	=46	=46	=46	=46
!LO:PB:g=original	!	!LO:PB:g=original	!	!	!	!LO:LB:g=original	!	!	!
8A\L	.	4B\	-no-	8f#\L	.	16d/LL	.	16b\LL	.
.	.	.	.	.	.	16d/	.	16b\	.
8A\	.	.	.	8f#\	.	16b/	.	16dd\	.
.	.	.	.	.	.	16b/JJ	.	16dd\JJ	.
8A\	.	4B\	-rus	8f#\	.	16d/LL	.	16b\LL	.
.	.	.	.	.	.	16d/	.	16b\	.
8A\J	.	.	.	8f#\J	.	16b/	.	16dd\	.
.	.	.	.	.	.	16b/JJ	.	16dd\JJ	.
8G\L	.	4.c#\	tu-	8e\L	.	16a\LL	.	16cc#\LL	.
.	.	.	.	.	.	16a\	.	16cc#\	.
8G\	.	.	.	8e\	.	16cc#\	.	16ee\	.
.	.	.	.	.	.	16cc#\JJ	.	16ee\JJ	.
8G\	.	.	.	8e\	.	16a\LL	.	16cc#\LL	.
.	.	.	.	.	.	16a\	.	16cc#\	.
8G\J	.	8c#\	-bae	8e\J	.	16cc#\	.	16ee\	.
.	.	.	.	.	.	16cc#\JJ	.	16ee\JJ	.
=47	=47	=47	=47	=47	=47	=47	=47	=47	=47
!	!	!	!	!LO:LB:g=original	!	!	!	!	!
8F#\L	.	4d\	so-	8d\L	.	16a\LL	.	16dd\LL	.
.	.	.	.	.	.	16a\	.	16dd\	.
8F#\	.	.	.	8d\	.	16dd\	.	16ff#\	.
.	.	.	.	.	.	16dd\JJ	.	16ff#\JJ	.
8F#\	.	4D/	-nus	8d\	.	16a\LL	.	16dd\LL	.
.	.	.	.	.	.	16a\	.	16dd\	.
8F#\J	.	.	.	8d\J	.	16dd\	.	16ff#\	.
.	.	.	.	.	.	16dd\JJ	.	16ff#\JJ	.
8F#\L	.	4D/	so-	8d\L	.	16a\LL	.	16dd\LL	.
.	.	.	.	.	.	16a\	.	16dd\	.
8F#\	.	.	.	8d\	.	16dd\	.	16aa\	.
.	.	.	.	.	.	16dd\JJ	.	16aa\JJ	.
8F#\	.	4d\	-nat	8d\	.	16a\LL	.	16dd\LL	.
.	.	.	.	.	.	16a\	.	16dd\	.
8F#\J	.	.	.	8d\J	.	16dd\	.	16aa\	.
.	.	.	.	.	.	16dd\JJ	.	16aa\JJ	.
=48	=48	=48	=48	=48	=48	=48	=48	=48	=48
!	!	!	!	!	!	!	!	!LO:LB:g=original	!
8G\L	.	4B\	un-	8g\L	.	16b\LL	.	16dd\LL	.
.	.	.	.	.	.	16b\	.	16dd\	.
8G\	.	.	.	8g\	.	16dd\	.	16bb\	.
.	.	.	.	.	.	16dd\JJ	.	16bb\JJ	.
8G\	.	4G\	-di-	8g\	.	16b\LL	.	16dd\LL	.
.	.	.	.	.	.	16b\	.	16dd\	.
8G\J	.	.	.	8g\J	.	16gg\	.	16bb\	.
.	.	.	.	.	.	16gg\JJ	.	16bb\JJ	.
8AA/L	.	4.E\	-qae	8a\L	.	16e/LL	.	16cc#\LL	.
.	.	.	.	.	.	16e/	.	16cc#\	.
8AA/	.	.	.	8a\	.	16g/	.	16ee\	.
.	.	.	.	.	.	16g/JJ	.	16ee\JJ	.
8AA/	.	.	.	8a\	.	16e/LL	.	16cc#\LL	.
.	.	.	.	.	.	16e/	.	16cc#\	.
8AA/J	.	8G\	fra-	8a\J	.	16g/	.	16ee\	.
.	.	.	.	.	.	16g/JJ	.	16ee\JJ	.
=49	=49	=49	=49	=49	=49	=49	=49	=49	=49
8D\L	.	4F#\	-go-	8a\L	.	16f#/LL	.	16dd\LL	.
.	.	.	.	.	.	16f#/	.	16dd\	.
8D\	.	.	.	8a\	.	16a/	.	16ff#\	.
.	.	.	.	.	.	16a/JJ	.	16ff#\JJ	.
8D\	.	4D\	-re	8a\	.	16f#\LL	.	16dd\LL	.
.	.	.	.	.	.	16f#\	.	16dd\	.
8D\J	.	.	.	8a\J	.	16dd\	.	16ff#\	.
!	!LO:DY:t=po	!	!	!	!	!	!	!	!LO:DY:t=po&colon;
.	p	.	.	.	.	16dd\JJ	.	16ff#\JJ	p
!	!LO:DY:t=f.	!	!	!	!LO:DY:t=po	!	!LO:DY:t=po	!	!LO:DY:t=f.
8F#\L	f	4.A\	so-	8d\L	p	16a\LL	p	16dd\LL	f
.	.	.	.	.	f	16a\	.	16dd\	.
8F#\	.	.	.	8d\	.	16dd\	f	16ff#\	.
.	.	.	.	.	.	16dd\JJ	.	16ff#\JJ	.
8F#\	.	.	.	8d\	.	16a\LL	.	16dd\LL	.
.	.	.	.	.	.	16a\	.	16dd\	.
8F#\J	.	8d\	-nat	8d\J	.	16dd\	.	16ff#\	.
.	.	.	.	.	.	16dd\JJ	.	16ff#\JJ	.
=50	=50	=50	=50	=50	=50	=50	=50	=50	=50
!LO:LB:g=original	!	!LO:LB:g=original	!	!	!	!	!	!	!
8G\L	.	8B\L	un-	8g\L	.	16b\LL	.	16dd\LL	.
.	.	.	.	.	.	16b\	.	16dd\	.
8G\	.	8d\J	.	8g\	.	16dd\	.	16bb\	.
.	.	.	.	.	.	16dd\JJ	.	16bb\JJ	.
8G\	.	8G\L	-di-	8g\	.	16b\LL	.	16gg\LL	.
.	.	.	.	.	.	16b\	.	16gg\	.
8G\J	.	8B\J	.	8g\J	.	16dd\	.	16bb\	.
.	.	.	.	.	.	16dd\JJ	.	16bb\JJ	.
!	!LO:DY:t=rinfz.	!	!	!	!	!	!	!	!LO:DY:t=rinfz&colon;
8AA/L	rfz	4.AA/	-qae	8a\L	rfz	16cc#\LL	rfz	16ee\LL	rfz
.	.	.	.	.	.	16cc#\	.	16ee\	.
8AA/	.	.	.	8a\	.	16ee\	.	16gg\	.
.	.	.	.	.	.	16ee\JJ	.	16gg\JJ	.
8AA/	.	.	.	8a\	.	16cc#\LL	.	16ee\LL	.
.	.	.	.	.	.	16cc#\	.	16ee\	.
8AA/J	.	8G\	fra-	8a\J	.	16ee\	.	16gg\	.
.	.	.	.	.	.	16ee\JJ	.	16gg\JJ	.
=51	=51	=51	=51	=51	=51	=51	=51	=51	=51
*	*	*	*	*	*	*	*	*^	*
!	!	!	!	!	!	!LO:LB:g=original	!	!	!	!
*Xtremolo	*	*	*	*	*	*	*	*	*	*
8D\L	.	8F#\L	-go-	8d\L	.	8dd\	.	8ff#/L	2a/ 2d/	.
8D\	.	8E\J	.	8d\	.	8ff#/L 8a/ 8d/	.	8ff#/	.	.
8D\	.	4D\	-re	8d\	.	8ff#/ 8a/ 8d/	.	8ff#/	.	.
8D\J	.	.	.	8d\J	.	8ff#/J 8a/ 8d/	.	8ff#/J	.	.
4D\	.	4d\	stre-	4d\	.	4ff#/ 4a/ 4d/	.	4ff#/	4a/ 4d/	.
!	!LO:DY:t=p.	!	!	!	!	!	!	!	!	!
4F#\	p	4cn\	-punt	4a\	p	4r	.	4r	4ryy	.
*	*	*	*	*	*	*	*	*v	*v	*
=52	=52	=52	=52	=52	=52	=52	=52	=52	=52
!	!	!	!	!	!	!	!	!LO:LB:g=original	!LO:DY:t=p.
4G\	.	8B\L	ar-	4g\	.	4gg/ 4b/ 4d/	p	4bb/ 4b/ 4d/	p
.	.	8d\J	.	.	.	.	.	.	.
4G\	.	4G'\	-ma	4b\	.	4r	.	4r	.
4G#X\	.	4E\	iam	4b\	.	4ee|\	.	4bb\|	.
4G#\	.	4d\	hor-	4b\	.	4r	.	4r	.
=53	=53	=53	=53	=53	=53	=53	=53	=53	=53
4A\	.	8c#\L	-ro-	4a\	.	4aa|\	.	4ccc#\|	.
.	.	8e\J	.	.	.	.	.	.	.
4AA/	.	4A'\	-re	4a\	.	4r	.	4r	.
8A\L	.	8A\L	tur-	8a\L	.	8a\L	.	8a\L	.
8B\	.	8B\J	.	8b\	.	8b\	.	8b\	.
8c#\	.	8c#\	-ba	8cc#\	.	8cc#\	.	8cc#\	.
8d\J	.	8d\	in-	8dd\J	.	8dd\J	.	8dd\J	.
=54	=54	=54	=54	=54	=54	=54	=54	=54	=54
!LO:LB:g=original	!LO:DY:t=po.	!LO:LB:g=original	!	!LO:LB:g=original	!	!	!	!	!LO:DY:t=po.
8c#\L	p	8c#\L	-fi-	8cc#\L	.	8cc#\L	.	8cc#/L	p
!	!LO:DY:t=f.	!	!	!	!LO:DY:t=po	!	!LO:DY:t=po	!	!LO:DY:t=f.
8B\	f	8B\J	.	8b\	p	8b\	p	8b/	f
8A\	.	8A\	-da	8a\	f	8a\	f	8a/	.
8B\J	.	8B\	im-	8b\J	.	8b\J	.	8b/J	.
!	!LO:DY:t=rinfz.	!	!	!	!	!	!	!	!LO:DY:t=rinfz.
8A\L	rfz	8A\L	-mo-	8a\L	rfz	8a/L	.	8a/L	rfz
8G\	.	8G\J	.	8g\	.	8g/	rfz	8g/	.
8F#\	.	8F#\L	-tae	8f#\	.	8f#/	.	8f#/	.
8E\J	.	8G\J	.	8g\J	.	8g/J	.	8g/J	.
=55	=55	=55	=55	=55	=55	=55	=55	=55	=55
*tremolo	*	*	*	*	*	*	*	*	*
!	!O:DY:t=f.	!	!	!	!	!	!	!	!LO:DY:t=f.
8D\L	f	4F#\	stat	8f#\L	f	16f#/LL	f	16f#/LL	f
.	.	.	.	.	.	16e/	.	16e/	.
8D\	.	.	.	8f#\	.	16d/	.	16d/	.
.	.	.	.	.	.	16c#/JJ	.	16c#/JJ	.
8D\	.	4r	.	8f#\	.	16d/LL	.	16d/LL	.
.	.	.	.	.	.	16e/	.	16e/	.
8D\J	.	.	.	8f#\J	.	16f#/	.	16f#/	.
.	.	.	.	.	.	16g/JJ	.	16g/JJ	.
!	!O:DY:t=p.	!	!	!	!	!	!	!	!LO:DY:t=p.
8F#\L	p	4A\	stre-	8d\L	p	4a/	p	4a/	p
8F#\	.	.	.	8d\	.	.	.	.	.
8F#\	.	4D\	-punt	8d\	.	4d/	.	4d/	.
8F#\J	.	.	.	8d\J	.	.	.	.	.
=56	=56	=56	=56	=56	=56	=56	=56	=56	=56
4G\	.	8B\L	ar-	4g\	.	8b\L	.	8b\L	.
.	.	16d\L	.	.	.	16dd\L	.	16dd\L	.
.	.	16c#\JJ	.	.	.	16cc#\JJ	.	16cc#\JJ	.
4r	.	8B\L	.	4r	.	8b/L	.	8b\L	.
.	.	8A\J	.	.	.	8a/J	.	8a\J	.
4G\	.	8G\L	.	4g\	.	8g/L	.	8g/L	.
.	.	8B\	.	.	.	8b/	.	8b/	.
4E\	.	8E\	.	4e\	.	8e/	.	8e/	.
.	.	8G\J	.	.	.	8g/J	.	8g/J	.
=57	=57	=57	=57	=57	=57	=57	=57	=57	=57
!	!	!LO:TX:t=P:problem=mixedbeam	!	!	!	!LO:TX:t=P:problem=mixedbeam	!	!LO:TX:t=P:problem=mixedbeam	!
4C#/	.	8C#/|<L	.	4c#/	.	8c#/L	.	8c#/L	.
.	.	16c#\L	.	.	.	16cc#\L	.	16cc#\L	.
.	.	16B\JJ	.	.	.	16b\JJ	.	16b\JJ	.
4r	.	8A\L	.	4r	.	8a/L	.	8a/L	.
.	.	8G\J	.	.	.	8g/J	.	8g/J	.
4F#\	.	8F#\L	.	4f#\	.	8f#/L	.	8f#/L	.
.	.	8A\	.	.	.	8a/	.	8a/	.
4D\	.	8D\	.	4d\	.	8d/	.	8d/	.
.	.	8F#\J	.	.	.	8f#/J	.	8f#/J	.
=58	=58	=58	=58	=58	=58	=58	=58	=58	=58
!	!	!LO:LB:g=original	!	!	!	!	!	!	!
!LO:LB:g=original	!	!LO:TX:t=P:problem=mixedbeam	!	!	!	!	!	!LO:PB:g=original	!
4BB/	.	8BB/|<L	.	4B/	.	8B/L	.	8B/L	.
.	.	16B\L	.	.	.	16b/L	.	16b/L	.
.	.	16A\JJ	.	.	.	16a/JJ	.	16a/JJ	.
4r	.	8G\L	.	4r	.	8g/L	.	8g/L	.
.	.	8F#\J	.	.	.	8f#/J	.	8f#/J	.
4E\	.	8E\L	.	4e\	.	8e/L	.	8e/L	.
.	.	8G\	.	.	.	8g/	.	8g/	.
4C#/	.	8C#\	.	4c#\	.	8c#/	.	8c#/	.
.	.	8E\J	.	.	.	8e/J	.	8e/J	.
=59	=59	=59	=59	=59	=59	=59	=59	=59	=59
!	!	!LO:TX:t=P:problem=mixedbeam	!	!	!	!LO:PB:g=original	!	!	!
4AA/	.	8AA/|<L	.	4A/	.	8A/L	.	8A/L	.
.	.	16A\L	.	.	.	16a/L	.	16a/L	.
.	.	16G\JJ	.	.	.	16g/JJ	.	16g/JJ	.
4r	.	8F#\L	.	4r	.	8f#/L	.	8f#/L	.
.	.	8E\J	.	.	.	8e/J	.	8e/J	.
*	*	*	*	*Xtremolo	*	*	*	*	*
8D\L	.	4F#\	.	8d\L	.	4f#/	.	4f#/	.
8D\	.	.	.	8d\	.	.	.	.	.
8D\	.	4d\	.	8d\	.	4f#/	.	4dd\	.
8D\J	.	.	.	8d\J	.	.	.	.	.
=60	=60	=60	=60	=60	=60	=60	=60	=60	=60
*	*	*	*	*tremolo	*	*	*	*	*
!	!	!	!	!	!LO:DY:t=po	!	!	!	!LO:DY:rj:t=po&colon;
8GG/L	.	8B\L	.	8G/L	p	8g/L	.	8b/L	p
!	!	!	!	!	!	!	!	!	!LO:DY:rj:t=f.
8GG/	.	8A\	.	8G/	f	8a/	p	8a/	f
!	!LO:DY:t=po	!	!	!	!	!	!	!	!
8GG/	p	8G\	.	8G/	.	8g/	f	8g/	.
!	!LO:DY:t=f.	!	!	!	!	!	!	!	!
8GG/J	f	8A\J	.	8G/J	.	8a/J	.	8a/J	.
8GG/L	,	8G\L	.	8G/L	.	8g/L	.	8g/L	.
8GG/	.	8F#\	.	8G/	.	8f#/	.	8f#/	.
8GG/	.	8E\	.	8G/	.	8e/	.	8e/	.
8GG/J	.	8D\J	.	8G/J	.	8d/J	.	8d/J	.
=61	=61	=61	=61	=61	=61	=61	=61	=61	=61
!	!LO:DY:t=f.	!	!	!LO:LB:g=original	!	!	!	!	!LO:DY:t=f.
8AA/L	f	4A\	.	8A/L	f	8c#/L	f	8a/L	f
8AA/	.	.	.	8A/	.	16c#/L	.	16a/L	.
.	.	.	.	.	.	16c#/JJ	.	16a/JJ	.
8AA/	.	4AA/	-ma	8A/	.	8c#/L	.	8a/L	.
8AA/J	.	.	.	8A/J	.	8c#/J	.	8a/J	.
*Xtremolo	*	*	*	*	*	*	*	*	*
8A\L	.	2r	.	8a\L	.	8e/L	.	8cc#\L	.
8A\	.	.	.	8a\	.	16e/L	.	16cc#\L	.
.	.	.	.	.	.	16e/JJ	.	16cc#\JJ	.
8G\	.	.	.	8a\	.	8e/L	.	8cc#\L	.
8G\J	.	.	.	8a\J	.	8e/J	.	8cc#\J	.
=62	=62	=62	=62	=62	=62	=62	=62	=62	=62
*tremolo	*	*	*	*	*	*	*	*	*
!LO:LB:g=original	!LO:DY:t=p.	!LO:LB:g=original	!	!	!	!	!	!	!LO:DY:t=p.
8F#\L	p	4d\	tur-	8d\L	p	8a/L	p	8dd\L	p
8F#\	.	.	.	8d\	.	8a/	.	8dd\	.
8F#\	.	8A\	-ba	8d\	.	8a/	.	8dd\	.
8F#\J	.	8d\	in-	8d\J	.	8a/J	.	8dd\J	.
*	*	*	*	*	*	*tremolo	*	*	*
*	*	*	*	*	*	*2\right	*	*	*
8G\L	.	4B\	-fi-	8g\L	.	8b\L	.	8dd\L	.
8G\	.	.	.	8g\	.	8b\	.	8dd\J	.
8G\	.	8G\	-da	8g\	.	8b\	.	8gg\L	.
8G\J	.	8B\	im-	8g\J	.	8b\J	.	8gg\J	.
=63	=63	=63	=63	=63	=63	=63	=63	=63	=63
8A\L	.	2A\	-mo-	8a\L	.	8dd\L	.	8ff#\L	.
8A\	.	.	.	8a\	.	8dd\	.	8ff#\	.
8A\	.	.	.	8a\	.	8dd\	.	8ff#\	.
8A\J	.	.	.	8a\J	.	8dd\J	.	8ff#\J	.
8AA/L	.	2AA/	-tae	8a\L	.	8cc#\L	.	8ee\L	.
8AA/	.	.	.	8a\	.	8cc#\	.	8ee\	.
8AA/	.	.	.	8a\	.	8cc#\	.	8ee\	.
!	!	!	!	!	!LO:DY:t=po	!	!	!	!
8AA/J	.	.	.	8a\J	p	8cc#\J	.	8ee\J	.
=64	=64	=64	=64	=64	=64	=64	=64	=64	=64
*	*	*	*	*^	*	*	*	*^	*
!	!	!	!	!LO:TX:b:t=ten&colon;	!	!	!	!	!LO:LB:g=original	!	!LO:DY:rj:t=po&colon;
*	*	*	*	*	*	*	*Xtremolo	*	*	*	*
!	!LO:DY:rj:t=p.	!	!	!	!	!LO:DY:rj	!	!	!	!	!
8D\L	p	4D\	stat	2a/	2f#\	f	16dd\LL	p	8ff#/L	2a/ 2d/	p
!	!LO:DY:rj:t=f.	!	!	!	!	!	!	!	!	!	!
.	f	.	.	.	.	.	.	.	.	.	.
!	!	!	!	!	!	!	!	!	!	!	!LO:DY:t=f.
.	.	.	.	.	.	.	16dd\	.	.	.	f
8D\	.	.	.	.	.	.	16ff#\	f	8aa/	.	.
.	.	.	.	.	.	.	16ff#\JJ	.	.	.	.
8D\	.	4r	.	.	.	.	16dd\LL	.	8ff#/	.	.
.	.	.	.	.	.	.	16dd\	.	.	.	.
8D\J	.	.	.	.	.	.	16ff#\	.	8aa/J	.	.
.	.	.	.	.	.	.	16ff#\JJ	.	.	.	.
!	!LO:DY:t=p.	!	!	!	!	!	!	!	!	!	!LO:DY:t=p.
8D\L	p	4B\	so-	2b/	2g\	p	16b\LL	.	8gg/L	2b/ 2d/	p
.	.	.	.	.	.	.	16b\	p	.	.	.
8D\	.	.	.	.	.	.	16gg\	.	8bb/	.	.
.	.	.	.	.	.	.	16gg\JJ	.	.	.	.
8D\	.	4G\	-nat	.	.	.	16b\LL	.	8gg/	.	.
.	.	.	.	.	.	.	16b\	.	.	.	.
8D\J	.	.	.	.	.	.	16gg\	.	8bb/J	.	.
.	.	.	.	.	.	.	16gg\JJ	.	.	.	.
=65	=65	=65	=65	=65	=65	=65	=65	=65	=65	=65	=65
8D\L	.	4d\	un-	2a/	2f#\	.	16a\LL	.	8ff#/L	2a/ 2d/	.
.	.	.	.	.	.	.	16a\	.	.	.	.
8D\	.	.	.	.	.	.	16ff#\	.	8aa/	.	.
.	.	.	.	.	.	.	16ff#\JJ	.	.	.	.
8D\	.	8D/	-di-	.	.	.	16a\LL	.	8ff#/	.	.
.	.	.	.	.	.	.	16a\	.	.	.	.
8D\J	.	8D/	-que	.	.	.	16ff#\	.	8aa/J	.	.
.	.	.	.	.	.	.	16ff#\JJ	.	.	.	.
8D\L	.	4B\	tu-	2b/	2g\	.	16b\LL	.	8gg/L	2b/ 2d/	.
.	.	.	.	.	.	.	16b\	.	.	.	.
8D\	.	.	.	.	.	.	16gg\	.	8bb/	.	.
.	.	.	.	.	.	.	16gg\JJ	.	.	.	.
8D\	.	4G\	-bae	.	.	.	16b\LL	.	8gg/	.	.
.	.	.	.	.	.	.	16b\	.	.	.	.
8D\J	.	.	.	.	.	.	16gg\	.	8bb/J	.	.
.	.	.	.	.	.	.	16gg\JJ	.	.	.	.
=66	=66	=66	=66	=66	=66	=66	=66	=66	=66	=66	=66
!LO:PB:g=original	!	!LO:PB:g=original	!	!	!	!	!LO:LB:g=original	!	!	!	!
8D\L	.	4d\	so-	2a/	2f#\	.	16a\LL	.	8ff#/L	2a/ 2d/	.
.	.	.	.	.	.	.	16a\	.	.	.	.
8D\	.	.	.	.	.	.	16ff#\	.	8aa/	.	.
.	.	.	.	.	.	.	16ff#\JJ	.	.	.	.
8D\	.	4D/	-nus	.	.	.	16a\LL	.	8ff#/	.	.
.	.	.	.	.	.	.	16a\	.	.	.	.
8D\J	.	.	.	.	.	.	16ff#\	.	8aa/J	.	.
.	.	.	.	.	.	.	16ff#\JJ	.	.	.	.
8D\L	.	4B\	stre-	2b/	2g\	.	16b\LL	.	8gg/L	2b/ 2d/	.
.	.	.	.	.	.	.	16b\	.	.	.	.
8D\	.	.	.	.	.	.	16gg\	.	8bb/	.	.
.	.	.	.	.	.	.	16gg\JJ	.	.	.	.
8D\	.	4G\	-punt	.	.	.	16b\LL	.	8gg/	.	.
.	.	.	.	.	.	.	16b\	.	.	.	.
8D\J	.	.	.	.	.	.	16gg\	.	8bb/J	.	.
.	.	.	.	.	.	.	16gg\JJ	.	.	.	.
=67	=67	=67	=67	=67	=67	=67	=67	=67	=67	=67	=67
!	!LO:DY:rj:t=po&colon;	!	!	!	!	!	!	!	!	!	!
.	p	.	.	.	.	.	.	.	.	.	.
!	!LO:DY:rj:t=f.	!	!	!	!	!	!	!	!	!	!
.	f	.	.	.	.	.	.	.	.	.	.
!	!	!	!	!	!	!	!	!	!	!	!LO:DY:rj:t=po&colon;
8D\L	.	4d\	ar-	2a/	2f#\	.	16a\LL	.	8ff#/L	2a/ 2d/	p
!	!	!	!	!	!	!	!	!	!	!	!LO:DY:t=f.
.	.	.	.	.	.	.	16a\	p	.	.	f
8D\	.	.	.	.	.	.	16ff#\	f	8aa/	.	.
.	.	.	.	.	.	.	16ff#\JJ	.	.	.	.
8D\	.	4D\	-ma	.	.	.	16a\LL	.	8ff#/	.	.
.	.	.	.	.	.	.	16a\	.	.	.	.
8D\J	.	.	.	.	.	.	16ff#\	.	8aa/J	.	.
.	.	.	.	.	.	.	16ff#\JJ	.	.	.	.
!	!LO:DY:t=rinfz&colon;	!	!	!	!	!	!	!	!	!	!
8D\L	rfz	4.B\	iam	2b/	2g\	.	16b\LL	.	8gg/L	2b/ 2d/	rfz
.	.	.	.	.	.	.	16b\	.	.	.	.
8D\	.	.	.	.	.	.	16gg\	.	8bb/	.	.
.	.	.	.	.	.	.	16gg\JJ	.	.	.	.
8D\	.	.	.	.	.	.	16b\LL	rfz	8gg/	.	.
.	.	.	.	.	.	.	16b\	.	.	.	.
8D\J	.	8G\	hor-	.	.	.	16gg\	.	8bb/J	.	.
.	.	.	.	.	.	.	16gg\JJ	.	.	.	.
=68	=68	=68	=68	=68	=68	=68	=68	=68	=68	=68	=68
!	!LO:DY:t=f.	!	!	!	!	!	!	!	!	!	!LO:DY:t=f.
8D\L	f	4d\	-ro-	2a/	2f#\	.	16a\LL	f	8ff#/L	2a/ 2d/	f
.	.	.	.	.	.	.	16a\	.	.	.	.
8D\	.	.	.	.	.	.	16ff#\	.	8aa/	.	.
.	.	.	.	.	.	.	16ff#\JJ	.	.	.	.
8D\	.	4D/	-re	.	.	.	16a\LL	.	8ff#/	.	.
.	.	.	.	.	.	.	16a\	.	.	.	.
8D\J	.	.	.	.	.	.	16ff#\	.	8aa/J	.	.
.	.	.	.	.	.	.	16ff#\JJ	.	.	.	.
*	*	*	*	*Xtremolo	*	*	*	*	*	*	*
8D\L	.	4d\	tur-	8a/L	8f#\L	.	4dd/ 4d/	.	4ff#/ 4a/ 4d/	2ryy	.
8D\	.	.	.	8a/	8f#\	.	.	.	.	.	.
8D\	.	8d\	-ba	8a/	8f#\	.	4r	.	4r	.	.
8D\J	.	8d\	in-	8a/J	8f#\J	.	.	.	.	.	.
*	*	*	*	*	*	*	*	*	*v	*v	*
=69	=69	=69	=69	=69	=69	=69	=69	=69	=69	=69
*Xtremolo	*	*	*	*	*	*	*	*	*	*
!	!LO:DY:t=p.	!	!	!LO:PB:g=original	!	!	!	!	!	!LO:DY:t=p.
8D\L	p	4d\	-fi-	4a/	4f#\	.	4ff#/ 4a/ 4d/	p	4ff#/ 4a/ 4d/	p
8D\J	.	.	.	.	.	.	.	.	.	.
8F#\L	.	8F#\	-da	4ryy	8f#\L	.	16f#/LL	.	16f#/LL	.
.	.	.	.	.	.	.	16f#/	.	16f#/	.
8F#\J	.	8F#\	im-	.	8f#\J	.	16f#/	.	16f#/	.
.	.	.	.	.	.	.	16f#/JJ	.	16f#/JJ	.
*	*	*	*	*	*	*	*tremolo	*	*tremolo	*
8G\L	.	4G\	-mo-	2ryy	8g\L	.	16g/LL	.	16g/LL	.
.	.	.	.	.	.	.	16g/	.	16g/	.
8G\	.	.	.	.	8g\J	.	16g/	.	16g/	.
.	.	.	.	.	.	.	16g/JJ	.	16g/JJ	.
8G#X\	.	4G#X\	-ta	.	8g#X\L	.	16g#X/LL	.	16g#X/LL	.
.	.	.	.	.	.	.	16g#X/	.	16g#X/	.
8G#\J	.	.	.	.	8g#\J	.	16g#X/	.	16g#X/	.
.	.	.	.	.	.	.	16g#X/JJ	.	16g#X/JJ	.
*	*	*	*	*v	*v	*	*	*	*	*
=70	=70	=70	=70	=70	=70	=70	=70	=70	=70
!LO:LB:g=original	!	!LO:LB:g=original	!	!	!	!	!	!LO:LB:g=original	!
8A\L	.	4A\	stat	8a\L	.	16a/LL	.	16a/LL	.
.	.	.	.	.	.	16a/	.	16a/	.
8A\J	.	.	.	8a\J	.	16a/	.	16a/	.
.	.	.	.	.	.	16a/JJ	.	16a/JJ	.
!	!LO:DY:rj:t=po	!	!	!	!LO:DY:t=po	!	!LO:DY:t=po	!	!LO:DY:t=po&colon;
8F#\L	p	4d\	im-	8f#\L	p	16dd\LL	p	16dd\LL	p
!	!LO:DY:t=f.	!	!	!	!	!	!	!	!LO:DY:t=f.
.	f	.	.	.	f	16dd\	f	16dd\	f
8F#\J	.	.	.	8f#\J	.	16dd\	.	16dd\	.
.	.	.	.	.	.	16dd\JJ	.	16dd\JJ	.
8G\L	.	4G\	-mo-	8g\L	.	16g/LL	.	16g/LL	.
.	.	.	.	.	.	16g/	.	16g/	.
8G\	.	.	.	8g\J	.	16g/	.	16g/	.
.	.	.	.	.	.	16g/JJ	.	16g/JJ	.
8G#X\	.	4G#X\	-ta	8g#X\L	.	16g#X/LL	.	16g#X/LL	.
.	.	.	.	.	.	16g#X/	.	16g#X/	.
8G#\J	.	.	.	8g#\J	.	16g#X/	.	16g#X/	.
.	.	.	.	.	.	16g#X/JJ	.	16g#X/JJ	.
*	*	*	*	*	*	*	*	*Xtremolo	*
=71	=71	=71	=71	=71	=71	=71	=71	=71	=71
*	*	*	*	*	*	*^	*	*^	*
4A\	.	4A\	stat	4a\	.	4a/	2.ryy	.	4a/	2.ryy	.
!	!LO:DY:t=f.	!	!	!	!	!	!	!LO:DY:rj:t=f&colon;	!	!	!LO:DY:t=f.
4d\	f	8r	.	4dd\	.	4ff#/ 4a/ 4d/	.	f	4ff#/ 4a/ 4d/	.	f
.	.	8d\	im-	.	.	.	.	.	.	.	.
4G\	.	4G\	-mo-	4g\	.	4gg/ 4b/ 4d/	.	.	4gg/ 4b/ 4d/	.	.
4A\	.	4A\	-ta	4a\	.	4ee/ 4cc#/	4a\	.	4ee/ 4cc#/	4a\	.
*	*	*	*	*	*	*v	*v	*	*	*	*
=72	=72	=72	=72	=72	=72	=72	=72	=72	=72	=72
*	*	*	*	*^	*	*	*	*	*	*
!	!	!	!	!LO:TX:b:t=ten&colon;	!	!	!	!	!	!	!
*	*	*	*	*	*	*	*Xtremolo	*	*	*	*
8D\L	.	4D\	stat	2a/	2f#\	.	16dd\LL	.	8ff#/L	2a/ 2d/	.
.	.	.	.	.	.	.	16dd\	.	.	.	.
8D\	.	.	.	.	.	.	16ff#\	.	8aa/	.	.
.	.	.	.	.	.	.	16ff#\JJ	.	.	.	.
8D\	.	4r	.	.	.	.	16dd\LL	.	8ff#/	.	.
.	.	.	.	.	.	.	16dd\	.	.	.	.
8D\J	.	.	.	.	.	.	16ff#\	.	8aa/J	.	.
.	.	.	.	.	.	.	16ff#\JJ	.	.	.	.
*tremolo	*	*	*	*	*	*	*	*	*	*	*
8D\L	.	2r	.	2b/	2g\	.	16b\LL	.	8gg/L	2b/ 2d/	.
.	.	.	.	.	.	.	16b\	.	.	.	.
8D\	.	.	.	.	.	.	16gg\	.	8bb/	.	.
.	.	.	.	.	.	.	16gg\JJ	.	.	.	.
8D\	.	.	.	.	.	.	16b\LL	.	8gg/	.	.
.	.	.	.	.	.	.	16b\	.	.	.	.
8D\J	.	.	.	.	.	.	16gg\	.	8bb/J	.	.
.	.	.	.	.	.	.	16gg\JJ	.	.	.	.
=73	=73	=73	=73	=73	=73	=73	=73	=73	=73	=73	=73
8D\L	.	1r	.	2a/	2f#\	.	16a\LL	.	8ff#/L	2a/ 2d/	.
.	.	.	.	.	.	.	16a\	.	.	.	.
8D\	.	.	.	.	.	.	16ff#\	.	8aa/	.	.
.	.	.	.	.	.	.	16ff#\JJ	.	.	.	.
8D\	.	.	.	.	.	.	16a\LL	.	8ff#/	.	.
.	.	.	.	.	.	.	16a\	.	.	.	.
8D\J	.	.	.	.	.	.	16ff#\	.	8aa/J	.	.
.	.	.	.	.	.	.	16ff#\JJ	.	.	.	.
8D\L	.	.	.	2b/	2g\	.	16b\LL	.	8gg/L	2b/ 2d/	.
.	.	.	.	.	.	.	16b\	.	.	.	.
8D\	.	.	.	.	.	.	16gg\	.	8bb/	.	.
.	.	.	.	.	.	.	16gg\JJ	.	.	.	.
8D\	.	.	.	.	.	.	16b\LL	.	8gg/	.	.
.	.	.	.	.	.	.	16b\	.	.	.	.
8D\J	.	.	.	.	.	.	16gg\	.	8bb/J	.	.
.	.	.	.	.	.	.	16gg\JJ	.	.	.	.
*	*	*	*	*	*	*	*	*	*v	*v	*
=74	=74	=74	=74	=74	=74	=74	=74	=74	=74	=74
*Xtremolo	*	*	*	*	*	*	*	*	*	*
8D\L	.	2r	.	4a/	4f#\	.	4ff#/ 4a/ 4d/	.	4aa/ 4a/ 4d/	.
8D\J	.	.	.	.	.	.	.	.	.	.
8F#\L	.	.	.	4ryy	8f#\L	.	16f#/LL	.	16f#/LL	.
.	.	.	.	.	.	.	16f#/	.	16f#/	.
8F#\J	.	.	.	.	8f#\J	.	16f#/	.	16f#/	.
.	.	.	.	.	.	.	16f#/JJ	.	16f#/JJ	.
*	*	*	*	*	*	*	*tremolo	*	*tremolo	*
!LO:LB:g=original	!	!LO:LB:g=original	!	!	!	!	!	!	!	!
8G\L	.	2r	.	2ryy	8g\L	.	16g/LL	.	16g/L	.
.	.	.	.	.	.	.	16g/	.	16g/	.
8G\J	.	.	.	.	8g\J	.	16g/	.	16g/	.
.	.	.	.	.	.	.	16g/JJ	.	16g/J	.
8G#X\L	.	.	.	.	8g#X\L	.	16g#X/LL	.	16g#/L	.
.	.	.	.	.	.	.	16g#X/	.	16g#/	.
8G#\J	.	.	.	.	8g#\J	.	16g#X/	.	16g#/	.
.	.	.	.	.	.	.	16g#X/JJ	.	16g#/J	.
*	*	*	*	*v	*v	*	*	*	*	*
=75	=75	=75	=75	=75	=75	=75	=75	=75	=75
8A\L	.	1r	.	8a\L	.	16a/LL	.	16a/L	.
.	.	.	.	.	.	16a/	.	16a/	.
8A\J	.	.	.	8a\J	.	16a/	.	16a/	.
.	.	.	.	.	.	16a/JJ	.	16a/J	.
16F#\LL	.	.	.	8f#\L	.	16dd\LL	???	16dd\L	.
16F#\	.	.	.	.	.	16dd\	.	16dd\	.
16F#\	.	.	.	8f#\J	.	16dd\	.	16dd\	.
16F#\JJ	.	.	.	.	.	16dd\JJ	.	16dd\J	.
16G\LL	.	.	.	8g\L	.	16g/LL	.	16g/L	.
16G\	.	.	.	.	.	16g/	.	16g/	.
16G\	.	.	.	8g\J	.	16g/	.	16g/	.
16G\JJ	.	.	.	.	.	16g/JJ	.	16g/J	.
16G#X\LL	.	.	.	8g#X\L	.	16g#X/LL	.	16g#/L	.
16G#\	.	.	.	.	.	16g#X/	.	16g#/	.
16G#\	.	.	.	8g#\J	.	16g#X/	.	16g#/	.
16G#\JJ	.	.	.	.	.	16g#X/JJ	.	16g#/J	.
*	*	*	*	*	*	*	*	*Xtremolo	*
=76	=76	=76	=76	=76	=76	=76	=76	=76	=76
*	*	*	*	*	*	*^	*	*^	*
!	!	!	!	!LO:LB:g=original	!	!	!	!	!LO:LB:g=original	!	!
4A\	.	1r	.	4a\	.	4a/	2.ryy	.	4a/	2.ryy	.
4d\	.	.	.	4dd\	.	4ff#/ 4a/ 4d/	.	.	4ff#/ 4a/ 4d/	.	.
4G\	.	.	.	4g\	.	4gg/ 4b/ 4d/	.	.	4gg/ 4b/ 4d/	.	.
4A\	.	.	.	4a\	.	4ee/ 4cc#/	4a\	.	4ee/ 4cc#/	4a\	.
*	*	*	*	*	*	*v	*v	*	*	*	*
*	*	*	*	*	*	*	*	*v	*v	*
=77	=77	=77	=77	=77	=77	=77	=77	=77	=77
*	*	*	*	*	*	*Xtremolo	*	*	*
8D/L	.	1r	.	8d\L	.	8ff#/L 8a/ 8d/	.	8ff#/L 8a/ 8d/	.
8D/	.	.	.	8d\	.	16ff#/L 16a/ 16d/	.	16ff#/L 16a/ 16d/	.
.	.	.	.	.	.	16ff#/JJ 16a/ 16d/	.	16ff#/JJ 16a/ 16d/	.
8D/	.	.	.	8d\	.	8ff#/L 8a/ 8d/	.	8ff#/L 8a/ 8d/	.
8D/J	.	.	.	8d\J	.	8ff#/J 8a/ 8d/	.	8ff#/J 8a/ 8d/	.
4D/	.	.	.	4d\	.	4ff#/ 4a/ 4d/	.	4ff#/ 4a/ 4d/	.
4r	.	.	.	4r	.	4r	.	4r	.
=78	=78	=78	=78	=78	=78	=78	=78	=78	=78
!	!LO:DY:t=p.	!	!	!	!	!LO:LB:g=original	!	!	!LO:DY:t=p.
8BB/L	p	2B\	Fru-	(1f#\	.	8b\L	p	8dd\L	p
8BB/	.	.	.	.	.	8b\	.	8dd\	.
8BB/	.	.	.	.	.	8b\	.	8dd\	.
8BB/J	.	.	.	.	.	8b\J	.	8dd\J	.
*tremolo	*	*	*	*	*	*tremolo	*	*tremolo	*
8AA#X/L	.	2F#\	-stra	.	.	8f#/L	.	8cc#\L	.
8AA#X/	.	.	.	.	.	8f#/	.	8cc#\	.
8AA#X/	.	.	.	.	.	8f#/	.	8cc#\	.
8AA#X/J	.	.	.	.	.	8f#/J	.	8cc#\J	.
=79	=79	=79	=79	=79	=79	=79	=79	=79	=79
!LO:LB:g=original	!	!LO:LB:g=original	!	!	!	!	!	!	!
8BB/L	.	4D/	ten-	(1f#\)	.	8b\L	.	8dd\L	.
8BB/	.	.	.	.	.	8b\	.	8dd\	.
8BB/	.	4BB/	-tas	.	.	8b\	.	8dd\	.
8BB/J	.	.	.	.	.	8b\J	.	8dd\J	.
8BB/L	.	4D/	di-	.	.	8b\L	.	8dd\L	.
8BB/	.	.	.	.	.	8b\	.	8dd\	.
8BB/	.	4F#\	-ra	.	.	8b\	.	8dd\	.
8BB/J	.	.	.	.	.	8b\J	.	8dd\J	.
=80	=80	=80	=80	=80	=80	=80	=80	=80	=80
8BB/L	.	4B\	co-	(1f#\)	.	8b\L	.	8dd\L	.
8BB/	.	.	.	.	.	8b\	.	8dd\	.
8BB/	.	4BB/	-hors	.	.	8b\	.	8dd\	.
8BB/J	.	.	.	.	.	8b\J	.	8dd\J	.
8BB/L	.	4r	.	.	.	8b\L	.	8dd\L	.
8BB/	.	.	.	.	.	8b\	.	8dd\	.
8BB/	.	8B\	Chri-	.	.	8b\	.	8dd\	.
8BB/J	.	8d\	-sti	.	.	8b\J	.	8dd\J	.
=81	=81	=81	=81	=81	=81	=81	=81	=81	=81
8AA#X/L	.	4c#\	tur-	1f#\)	.	8f#/L	.	8cc#\L	.
8AA#X/	.	.	.	.	.	8f#/	.	8cc#\	.
8AA#X/	.	4A#X\	-mam	.	.	8f#/	.	8cc#\	.
8AA#X/J	.	.	.	.	.	8f#/J	.	8cc#\J	.
8AA#/L	.	4F#\	su-	.	.	8cc#\L	.	4ff#\	.
8AA#/	.	.	.	.	.	8cc#\	.	.	.
8AA#/	.	4E\	-pe-	.	.	8cc#\	.	4ee\	.
8AA#/J	.	.	.	.	.	8cc#\J	.	.	.
*	*	*	*	*	*	*Xtremolo	*	*	*
=82	=82	=82	=82	=82	=82	=82	=82	=82	=82
8BB/L	.	4D/	-ra-	4f#\	.	4b/	.	4dd\	.
8BB/	.	.	.	.	.	.	.	.	.
8BB/	.	4BB/	-re	4f#\	.	8d/L	.	8b\L	.
8BB/J	.	.	.	.	.	8f#/J	.	8dd\J	.
8BB/L	.	4r	.	4f#\	.	4d/	.	4b\	.
8BB/	.	.	.	.	.	.	.	.	.
8BB/	.	8B\	po-	4r	.	4r	.	4r	.
8BB/J	.	8d\	-ne	.	.	.	.	.	.
=83	=83	=83	=83	=83	=83	=83	=83	=83	=83
*	*	*	*	*	*	*	*	*Xtremolo	*
8C#/L	.	4E#X\	mo-	8g#X\L	.	8e#X/L	.	8cc#\L	.
8C#/	.	.	.	8g#\	.	8e#/	.	8cc#\	.
8C#/	.	4G#X\	-dum	8g#\	.	8e#/	.	8cc#\	.
8C#/J	.	.	.	8g#\J	.	8e#/J	.	8cc#\J	.
!LO:LB:g=original	!	!LO:LB:g=original	!	!	!	!	!	!LO:LB:g=original	!
8C#/L	.	4C#/	de-	8c#\L	.	8e#/L	.	8cc#\L	.
8C#/	.	.	.	8c#\	.	8e#/	.	8cc#\	.
8C#/	.	4B\	-cer-	8c#\	.	8g#X/	.	8b\	.
8C#/J	.	.	.	8c#\J	.	8g#/J	.	8b\J	.
=84	=84	=84	=84	=84	=84	=84	=84	=84	=84
4F#\	.	8A\L	-ta-	4A/	.	4f#/	.	4a/	.
.	.	16F#\L	.	.	.	.	.	.	.
.	.	16G#X\JJ	.	.	.	.	.	.	.
4r	.	8A\L	.	4r	.	4r	.	4r	.
.	.	8F#\J	.	.	.	.	.	.	.
4G#X\	.	8B\L	.	4B/	.	4e#X/	.	4b/	.
.	.	16G#X\L	.	.	.	.	.	.	.
.	.	16A\JJ	.	.	.	.	.	.	.
4r	.	8B\L	.	4r	.	4r	.	4r	.
.	.	8G#\J	.	.	.	.	.	.	.
=85	=85	=85	=85	=85	=85	=85	=85	=85	=85
4A\	.	8c#\L	.	4c#\	.	4f#/	.	4cc#\	.
.	.	16A\L	.	.	.	.	.	.	.
.	.	16B\JJ	.	.	.	.	.	.	.
4r	.	8c#\L	.	4r	.	4r	.	4r	.
.	.	8A\J	.	.	.	.	.	.	.
(4B\	.	4d\	.	(4b\	.	2f#/	.	(4dd\	.
4A\)	.	4c#\	.	4a\)	.	.	.	4cc#\)	.
=86	=86	=86	=86	=86	=86	=86	=86	=86	=86
!	!LO:DY:t=po.	!	!	!	!LO:DY:t=po	!	!	!	!LO:DY:t=po&colon;
8B\L	p	8d\L	.	8b\L	p	8dd\L	.	8dd\L	p
!	!LO:DY:t=f	!	!	!	!	!	!LO:DY:t=po	!	!LO:DY:t=f.
8A\	f	8c#\	.	8a\	f	8cc#\	p	8cc#\	f
8G#X\	.	8B\	.	8g#X\	.	8b\	f	8b\	.
8F#\J	.	8A\J	.	8f#\J	.	8a\J	.	8a\J	.
!	!LO:DY:t=rinfz.	!	!	!	!	!	!	!	!LO:DY:t=rinfz.
8B\L	rfz	8B\L	.	8b\L	.	8b/L	.	8b/L	rfz
8A\	.	8A\	.	8a\	rfz	8a/	rfz	8a/	.
8G#X\	.	8G#X\	.	8g#X\	.	8g#X/	.	8g#X/	.
8F#\J	.	8F#\J	.	8f#\J	.	8f#/J	.	8f#/J	.
=87	=87	=87	=87	=87	=87	=87	=87	=87	=87
!LO:PB:g=original	!LO:DY:t=f.	!LO:PB:g=original	!	!	!	!	!	!	!LO:DY:t=f.
4c#\	f	4c#\	.	4cc#\	f	4cc#\	f	4cc#\	f
8C#/L	.	4C#/	-re	8c#\L	.	8c#/L	.	8c#/L	.
8D#X/J	.	.	.	8d#X\J	.	8d#X/J	.	8d#X/J	.
8E#X\L	.	2r	.	8e#X\L	.	8e#X/L	.	8e#X/L	.
8F#\	.	.	.	8f#\	.	8f#/	.	8f#/	.
8E#\	.	.	.	8e#\	.	8e#/	.	8e#/	.
8D#X\J	.	.	.	8d#X\J	.	8d#X/J	.	8d#X/J	.
=88	=88	=88	=88	=88	=88	=88	=88	=88	=88
8C#/L	.	2r	.	8c#\L	.	4c#/	.	4c#/	.
8Dn/	.	.	.	8dn\	.	.	.	.	.
8C#/	.	.	.	8c#\	.	4r	.	4r	.
8BB/J	.	.	.	8B\J	.	.	.	.	.
!	!LO:DY:t=p.	!	!	!	!	!	!	!	!LO:DY:t=p.
(>2AA/	p	4.F#\	ti-	(>2A/	p	8r	p	[2ff#\	p
.	.	.	.	.	.	(8cc#\L	.	.	.
.	.	.	.	.	.	8a\	.	.	.
.	.	8F#\	-bi	.	.	8f#\J)	.	.	.
=89	=89	=89	=89	=89	=89	=89	=89	=89	=89
2BB/	.	4G#X\	no-	2B/	.	8r	.	2ff#\]	.
.	.	.	.	.	.	(8dd\L	.	.	.
.	.	4d\	-cens	.	.	8b\	.	.	.
.	.	.	.	.	.	8g#X\J)	.	.	.
2C#/)	.	4c#\	au-	2c#/)	.	4c#/	.	2ee#X\	.
.	.	4E#X\	-ra	.	.	4g#X/	.	.	.
=90	=90	=90	=90	=90	=90	=90	=90	=90	=90
4D\	.	4F#\	flat	4d\	.	4f#/	.	4ff#'\	.
4r;	.	4r;	.	4r;	.	4r;	.	4r;	.
(>2AA/	.	4.F#\	ti-	(>2A/	.	8r	.	[2ff#\	.
.	.	.	.	.	.	(8cc#\L	.	.	.
.	.	.	.	.	.	8a\	.	.	.
.	.	8F#\	-bi	.	.	8f#\J)	.	.	.
=91	=91	=91	=91	=91	=91	=91	=91	=91	=91
!LO:LB:g=original	!	!LO:LB:g=original	!	!	!	!	!	!	!
2BB/	.	4G#X\	no-	2B/	.	8r	.	2ff#\]	.
.	.	.	.	.	.	8dd\L	.	.	.
.	.	4d\	-cens	.	.	8b\	.	.	.
.	.	.	.	.	.	8g#X\J	.	.	.
2C#/)	.	4c#\	au-	2c#/)	.	4c#/	.	2ee#X\	.
.	.	4E#X\	-ra	.	.	4g#X/	.	.	.
=92	=92	=92	=92	=92	=92	=92	=92	=92	=92
*Xtremolo	*	*	*	*	*	*	*	*	*
!	!LO:DY:rj:t=po.	!	!	!LO:LB:g=original	!LO:DY:t=po	!	!LO:DY:t=po	!	!LO:DY:t=po&colon;
8AA/L	p	4F#\	flat	8A/L	p	16f#/LL	p	16ff#\LL	p
!	!LO:DY:t=f.	!	!	!	!	!	!	!	!LO:DY:t=f.
.	f	.	.	.	.	16f#/	f	16ff#\	f
8AA/	.	.	.	8A/	f	16f#/	.	16ff#\	.
.	.	.	.	.	.	16f#/JJ	.	16ff#\JJ	.
*	*	*	*	*	*	*tremolo	*	*tremolo	*
8AA/	.	4r	.	8A/	.	16f#/LL	.	16cc#\LL	.
.	.	.	.	.	.	16f#/	.	16cc#\	.
8AA/J	.	.	.	8A/J	.	16f#/	.	16cc#\	.
.	.	.	.	.	.	16f#/JJ	.	16cc#\JJ	.
*tremolo	*	*	*	*tremolo	*	*	*	*	*
8BB/L	.	4F#\	no-	8A/L	.	16f#/LL	.	16dd\LL	.
.	.	.	.	.	.	16f#/	.	16dd\	.
8BB/	.	.	.	8A/	.	16f#/	.	16dd\	.
.	.	.	.	.	.	16f#/JJ	.	16dd\JJ	.
8BB/	.	4d\	-cens	8A/	.	16g#X/LL	.	16b\LL	.
.	.	.	.	.	.	16g#X/	.	16b\	.
8BB/J	.	.	.	8A/J	.	16g#X/	.	16b\	.
.	.	.	.	.	.	16g#X/JJ	.	16b\JJ	.
=93	=93	=93	=93	=93	=93	=93	=93	=93	=93
!	!LO:DY:t=f.	!	!	!	!	!	!	!	!LO:DY:t=f.
8C#/L	f	2c#\	au-	8c#/L	f	16f#/LL	f	16a/LL	f
.	.	.	.	.	.	16f#/	.	16a/	.
8C#/	.	.	.	8c#/	.	16f#/	.	16a/	.
.	.	.	.	.	.	16f#/	.	16a/	.
8C#/	.	.	.	8c#/	.	16f#/	.	16a/	.
.	.	.	.	.	.	16f#/	.	16a/	.
8C#/J	.	.	.	8c#/J	.	16f#/	.	16a/	.
.	.	.	.	.	.	16f#/JJ	.	16a/JJ	.
*Xtremolo	*	*	*	*	*	*	*	*	*
2C#/	.	2C#/	-ra-	8c#/L	.	16e#X/LL	.	16g#X/LL	.
.	.	.	.	.	.	16e#X/	.	16g#X/	.
.	.	.	.	8c#/	.	16e#X/	.	16g#X/	.
.	.	.	.	.	.	16e#X/	.	16g#X/	.
.	.	.	.	8c#/	.	16e#X/	.	16g#X/	.
.	.	.	.	.	.	16e#X/	.	16g#X/	.
.	.	.	.	8c#/J	.	16e#X/	.	16g#X/	.
.	.	.	.	.	.	16e#X/JJ	.	16g#X/JJ	.
*	*	*	*	*	*	*	*	*Xtremolo	*
*	*	*	*	*	*	*Xtremolo	*	*	*
*	*	*	*	*Xtremolo	*	*	*	*	*
=94	=94	=94	=94	=94	=94	=94	=94	=94	=94
4F#\	.	4F#\	-flat	4f#\	.	4f#|/	.	4f#/	.
8F#\L	.	4r	.	8f#\L	.	8f#/L	.	8f#/L	.
8G\J	.	.	.	8g\J	.	8g/J	.	8g/J	.
!	!	!LO:TX:t=[segno]:problem=znak segno na kresce taktowej	!	!	!	!	!	!	!
!	!	!LO:TX:b:i:t=Dal Segno	!	!	!	!	!	!	!
8A\L	.	2r	.	8a\L	.	8a/L	.	8a/L	.
8G\	.	.	.	8g\	.	8g/	.	8g/	.
8F#\	.	.	.	8f#\	.	8f#/	.	8f#/	.
!	!	!	!	!LO:TX:t=[segno]:problem=znak segno na kresce taktowej	!	!	!	!	!
!LO:TX:t=[segno]:problem=znak segno na kresce taktowej	!	!	!	!LO:TX:t=94	!	!LO:TX:t=[segno]:problem=znak segno na kresce taktowej	!	!LO:TX:t=[segno]:problem=znak segno na kresce taktowej	!
!LO:TX:b:i:t=Dal Segno	!	!	!	!LO:TX:b:i:t=Dal Segno	!	!LO:TX:i:b:t=94	!	!LO:TX:b:i:t=Dal Segno	!
8E\J	.	.	.	8e\J	.	8e/J	.	8e/J	.
==	==	==	==	==	==	==	==	==	==
*-	*-	*-	*-	*-	*-	*-	*-	*-	*-
!!!RDF**dynam: p = "p:"
!!!RDF**dynam: f = "f:"
!!!RDF**dynam: rfz = "rinf:"
!!!RDF**kern: | = vertical stroke
!!!RDF**kern: > = above
!!!RDF**kern: < = below
!!!system-decoration: [(s1,s2,s3)][(s4,s5)]
!!!EED: Andrzej Borzym
!!!EEV: 2021-03-31
!!!ENC: Anastazja Marusiak
!!!END: 2021-03-17
